!!!!SEGMENT: pl-wtm--r-1139--003_dobrzynski-ignacy-feliks--grand-trio-op-17-adagio.krn
!!!cenid: 18xx:1742
!!!COM: Dobrzyński, Ignacy Feliks
!!!COM-rismID: pe30020642
!!!CDT: 1807/02/15-1867/10/09
!!!CNT: Polish
!!!OPR: Grand Trio op. 17
!!!OTL: Adagio
!!!OMV: 003
!!!PDT: 1830
!!!AGN: Secular
!!!SMS-siglum: PL-Wtm
!!!SMS-shelfmark: R 1139
!!!SMS-shelfwork: 001-003 M
!!!SMS-variant:
!!!SMS-altvar:
!!!NIFC-rismSourceID: 1001060239
!!!NIFC-rismChildID: 1001060239
!!!NIFC-islandoraID:
!!!URL-pdf-islandora:
!!!URL-scan:
!!!ONB-nifc: UWAGA: części Tria: 1. Allegro moderato, 2. Scherzo, 3. Adagio, 4. Rondo
!!!AIN: 1 cello 1 forte 1 violn
!!!key: F
!!!OMD: Adagio Fantastico
**kern	**dynam	**kern	**dynam	**kern	**kern	**dynam
*part3	*part3	*part2	*part2	*part1	*part1	*part1
*mpart2	*mpart2	*mpart1	*mpart1	*mpart3	*mpart3	*mpart3
*staff4	*	*staff3	*	*staff2	*staff1	*
*mstaff2	*	*mstaff1	*	*mstaff4	*mstaff3	*
*Icello	*	*Ivioln	*	*Iforte	*Iforte	*
*I"Vcello	*	*I"Violino	*	*I"Piano forte	*I"Piano forte	*
*mI"Violoncello	*	*	*	*mI"Pianoforte	*mI"Pianoforte	*
*I'vlc	*	*I'vl	*	*I'pf	*I'pf	*
*ICstr	*	*ICstr	*	*ICklav	*ICklav	*
*clefF4	*	*clefG2	*	*clefF4	*clefG2	*
*k[b-]	*	*k[b-]	*	*k[b-]	*k[b-]	*
*F:	*	*F:	*	*F:	*F:	*
*M4/4	*	*M4/4	*	*M4/4	*M4/4	*
*met(c)	*	*met(c)	*	*met(c)	*met(c)	*
=1	=1	=1	=1	=1	=1	=1
!	!	!	!	!	!LO:TX:a:t=P:[eight] = 80 dopisane ołówkiem:problem	!
(4c\	.	1r	.	2r	2r	.
4f\)	.	.	.	.	.	.
*	*	*	*	*	*clefF4	*
!	!	!	!	!	!LO:SIC:s=8r	!
(4F\	.	.	.	4r	(>8r	.
!	!	!	!	!	!LO:SIC:s=(8DL	!
.	.	.	.	.	8D\L	.
4GT\	.	.	.	4BB- 4BBB-/	8E\	.
.	.	.	.	.	8D\J)	.
16qqF/LL	.	.	.	.	.	.
16qqG/JJ)	.	.	.	.	.	.
=2	=2	=2	=2	=2	=2	=2
*	*	*	*	*tremolo	*	*
!	!	!	!	!LO:SIC:v:s=(32AALLL (32AAA/	!	!
2.A\	<	1r	.	(32AALLL (32CC/	2.C#X/	.
!	!	!	!	!LO:SIC:v:s=32AA 32AAA/	!	!
.	.	.	.	32AA 32CC/	.	.
!	!	!	!	!LO:SIC:v:s=32AA 32AAA/	!	!
.	.	.	.	32AA 32CC/	.	.
!	!LO:MO:mod=.	!	!	!LO:SIC:v:s=32AA 32AAA/	!	!
.	[	.	.	32AA 32CC/	.	.
!	!	!	!	!LO:SIC:v:s=32AA 32AAA/	!	!
.	.	.	.	32AA 32CC/	.	.
!	!	!	!	!LO:SIC:v:s=32AA 32AAA/	!	!
.	.	.	.	32AA 32CC/	.	.
!	!	!	!	!LO:SIC:v:s=32AA 32AAA/	!	!
.	.	.	.	32AA 32CC/	.	.
!	!LO:MO:null:mod=[	!	!	!LO:SIC:v:s=32AA 32AAA/	!	!
.	.	.	.	32AA 32CC/	.	.
!	!	!	!	!LO:SIC:v:s=32AA 32AAA/	!	!
.	>	.	.	32AA 32CC/	.	.
!	!	!	!	!LO:SIC:v:s=32AA 32AAA/	!	!
.	.	.	.	32AA 32CC/	.	.
!	!	!	!	!LO:SIC:v:s=32AA 32AAA/	!	!
.	.	.	.	32AA 32CC/	.	.
!	!LO:MO:mod=.	!	!	!LO:SIC:v:s=32AA 32AAA/	!	!
.	]	.	.	32AA 32CC/	.	.
!	!	!	!	!LO:SIC:v:s=32AA 32AAA/	!	!
.	.	.	.	32AA 32CC/	.	.
!	!	!	!	!LO:SIC:v:s=32AA 32AAA/	!	!
.	.	.	.	32AA 32CC/	.	.
!	!	!	!	!LO:SIC:v:s=32AA 32AAA/	!	!
.	.	.	.	32AA 32CC/	.	.
!	!	!	!	!LO:SIC:v:s=32AAJJJ 32AAA/	!	!
.	.	.	.	32AAJJJ 32CC/	.	.
*	*	*	*	*Xtremolo	*	*
!	!LO:MO:null:mod=]	!	!	!	!	!
.	.	.	.	4AA) 4AAA/)	.	.
4r	.	.	.	4r	4r	.
=3	=3	=3	=3	=3	=3	=3
*	*	*	*	*	*clefG2	*
1r	.	(4cc\	.	2r	2r	.
.	.	4ff\)	.	.	.	.
!	!	!	!	!	!LO:SIC:s=8r	!
.	.	(4f/	.	4r	(>8r	.
!	!	!	!	!	!LO:SIC:s=(8dL	!
.	.	.	.	.	8d/L	.
.	.	4gT/	.	(4B- 4BB-\	8e/	.
.	.	.	.	.	8d/J)	.
.	.	16qqf/LL	.	.	.	.
.	.	16qqg/JJ)	.	.	.	.
=4	=4	=4	=4	=4	=4	=4
1r	.	4.a/	.	4.A 4.AA\)	4.c#X/	.
!	!	!	!	!LO:SIC:s=16r	!LO:SIC:s=16r	!
.	.	8r	.	(>16r	(>16r	.
!	!	!	!	!LO:SIC:s=(64ELLLL	!LO:SIC:s=(64eLLLL	!
.	.	.	.	64E\LLLL	64e/LLLL	.
.	.	.	.	64F\	64f/	.
.	.	.	.	64G\	64g/	.
.	.	.	.	64A\JJJJ)	64a/JJJJ)	.
!	!	!	!	!	!LO:SIC:s=(<2b-T	!
.	.	2r	.	(2B-\	(>2b-T/	.
!	!	!	!	!	!LO:SIC:s=32qqaLLL	!
.	.	.	.	32qqA\LLL	32qqa/LLL)	.
.	.	.	.	32qqG\	32qqg/	.
.	.	.	.	32qqF\	32qqf/	.
.	.	.	.	32qqE\	32qqe/	.
!	!	!	!	!	!LO:SIC:s=32qqdJJJ)	!
.	.	.	.	32qqD\JJJ)	32qqd/JJJ	.
=5	=5	=5	=5	=5	=5	=5
*	*	*	*	*^	*^	*
1ryy	.	1ryy	.	8C#X\	2.ryyyy	8c#X/	2.ryyyy	.
.	.	.	.	4c#X 4C#\	.	4gg 4ee 4a\	.	fz
.	.	.	.	16.dLL 16.D\	.	16.ffLL 16.dd 16.a/	.	.
.	.	.	.	32AJJk 32AA\	.	32ee-XJJk 32cc 32f/	.	.
.	.	.	.	16.B-LL 16.BB-\	.	16.ddLL 16.b- 16.f/	.	.
.	.	.	.	32F#XK 32FF#X\	.	32ccK 32a 32d/	.	.
.	.	.	.	16.G 16.GG\	.	16.b- 16.g 16.d/	.	.
.	.	.	.	32AJJk 32AA\	.	32ddJJk 32a 32d/	.	.
.	.	.	.	8B-/L	4B- 4BB-\	8g/L	[4d\	.
.	.	.	.	[8F#/J	.	8g#X/J	.	.
=6	=6	=6	=6	=6	=6	=6	=6	=6
1ryy	.	1ryy	.	8F#/L]	[4AA\	[4a/	8d\L]	.
.	.	.	.	16.E/L	.	.	16c#X\L	.
.	.	.	.	.	.	.	16Bn\JJ	.
.	.	.	.	32D/JJk	.	.	.	.
.	.	.	.	8E/	8AA\]	8a/]	8c#\	.
!	!	!	!	!	!	!LO:SIC:s=16r	!	!
.	.	.	.	16r	8ryyyy	(>16r	8ryyyy	.
!	!	!	!	!	!	!LO:N:vis=32	!	!
!	!	!	!	!	!	!LO:SIC:s=(64ALLLL	!	!
.	.	.	.	(>64AA/LLLL	.	64A/LLLL	.	.
!	!	!	!	!	!	!LO:N:vis=32	!	!
!	!	!	!	!	!	!LO:SIC:v:s=64B-/	!	!
.	.	.	.	64BB-/	.	64B/	.	.
!	!	!	!	!	!	!LO:N:vis=32	!	!
!	!	!	!	!	!	!LO:SIC:v:s=64c/	!	!
.	.	.	.	64C/	.	64c#/	.	.
!	!	!	!	!	!	!LO:N:vis=32	!	!
.	.	.	.	64D/JJJJ)	.	64d/JJJJ)	.	.
!	!	!	!	!LO:SIC:s=(<2E-t	!	!	!	!
.	.	.	.	(2E-Xt\	2ryyyy	(>2e-XT/	2ryyyy	.
.	.	.	.	16qqD\LL	.	32qqd/LLL	.	.
.	.	.	.	16qqC\	.	32qqc/	.	.
.	.	.	.	16qqBB-\	.	32qqB-</	.	.
.	.	.	.	16qqAA\	.	32qqA</	.	.
.	.	.	.	16qqGG\JJ	.	32qqG</JJJ	.	.
*	*	*	*	*v	*v	*	*	*
=7	=7	=7	=7	=7	=7	=7	=7
1ryy	.	1ryy	.	8FF#\)	8F#X</)	8ryyyy	.
.	.	.	.	4F#y 4FF#/	4ccc 4aa 4dd\	8ryyyy	.
.	.	.	.	.	.	4ryyyy	.
.	.	.	.	16.GLL 16.GG/	16.bb-LL 16.gg 16.dd\	.	.
.	.	.	.	32AJJk 32AA/	32aaJJk 32ff 32dd\	.	.
.	.	.	.	8B-L 8BB-\	16gg/LL	8dd\L	.
.	.	.	.	.	16ff/	.	.
.	.	.	.	8BnJ 8BBn\	16ee/	8a-X 8f\	.
.	.	.	.	.	16dd/JJ	.	.
.	.	.	.	8.cL 8.C\	16dd/LL	8.g 8.e\	.
.	.	.	.	.	16cc/	.	.
.	.	.	.	.	16bn/	.	<
.	.	.	.	16c#Jk 16C#X\	16b-X/JJ	16gJk 16e\	.
=8	=8	=8	=8	=8	=8	=8	=8
!	!	!	!	!LO:SIC:v:s=(4c# 4C#\	!LO:S:s=2:note:problem=note-level slur	!	!
1ryy	.	1ryy	.	(4c 4C\	(4b- (<4g ((4e^>/	4ryyyy	[ fz
.	.	.	.	8d 8D\)	8a) 8f/))	8ryyyy	.
.	.	.	.	(8c\L	(8ee/L	8aL 8f#X^\	.
.	.	.	.	8Bn'\J)	8dd/J)	8g\J	.
.	.	.	.	(8d\L	(8ff/L	8bnL 8g#X^\	.
.	.	.	.	8c#X'\J)	8ee/J)	8a\J	.
.	.	.	.	(8e\	(8gg/	(8cc#X 8b-X\	.
!!LO:PB:g=original
=9	=9	=9	=9	=9	=9	=9	=9
!	!	!	!	!LO:TX:a:t=P:problem=brak zakończenia łuku	!	!LO:TX:a:t=P:problem=zakończenie czterech łuków	!
1ryy	.	1ryy	.	8d\)	8ff/)	8dd 8a\)	.
.	.	.	.	4g\	4bb- 4ee/	4cc#X\	.
.	.	.	.	16.f\LL	16.aa/LL	16.dd\LL	.
.	.	.	.	32c#X\JJk	32gg/JJk	32eeJJk 32a\	.
!	!	!	!	!	!LO:TX:t=P:problem=przekreślona 8ee	!	!
.	.	.	.	8d\L	8ff/L	8ddL 8a\	.
.	.	.	.	8B- 8BB-\	8dd/	8f\	.
!	!	!	!	!LO:SIC:v:s=8cn 8C\	!	!	!
.	.	.	.	8c# 8C\	8g/	8f\	.
!	!	!	!	!LO:SIC:v:s=8cJ 8C\	!	!	!
.	.	.	.	8c#J 8C\	8ccnJ 8g/	8e\J	.
=10	=10	=10	=10	=10	=10	=10	=10
*	*	*	*	*^	*	*	*
!LO:SIC:s=8.r	!	!LO:SIC:s=8.r	!	!	!	!	!	!
(>8.r	.	(>8.r	.	4.Bn 4.A-X 4.F 4.BBn\	2ryyyy	4.dd/	4.a-X 4.f\	fz
!LO:SIC:s=(32FLLL	!	!LO:SIC:s=(32fLLL	!	!	!	!	!	!
32F\LLL	f	32f/LLL	f	.	.	.	.	.
!	!LO:MO:mod=.	!	!	!	!	!	!	!
32G\JJJ	>	32g/JJJ	.	.	.	.	.	.
!	!LO:MO:null:mod=>	!	!	!	!	!	!	!
4A-XT\)	.	4a-XT/)	>	.	.	.	.	.
!	!	!	!	!	!	!	!LO:SIC:s=8r	!
.	.	.	.	8r	.	(8ryyyy	(8r	.
16qqG/LL	]	16qqg/LL	.	.	.	.	.	.
16qqF/JJ	.	16qqf/JJ	]	.	.	.	.	.
!	!	!	!	!	!	!LO:SIC:v:s=4an/	!	!
!	!	!	!	!	!	!LO:SIC:s=(4an	!	!
4C\	.	4c/	.	4c/	2C\	4a-/	4f\	.
.	.	.	.	.	.	16qqb-/LL	.	.
!	!	!	!	!	!	!LO:SIC:v:s=16qqa/	!	!
.	.	.	.	.	.	16qqa-/	.	.
.	.	.	.	.	.	16qqg#/	.	.
!	!	!	!	!	!	!LO:SIC:v:s=16qqa/JJ	!	!
.	.	.	.	.	.	16qqa-/JJ	.	.
!	!	!	!	!LO:SIC:v:s=4B-/	!	!	!	!
4r	.	4r	.	4B/	.	16cc/LL	4e\	.
.	.	.	.	.	.	16b-/	.	.
!	!	!	!	!	!	!LO:SIC:v:s=16gn/	!	!
.	.	.	.	.	.	16g#/	.	.
!	!	!	!	!	!	!LO:SIC:v:s=16a/JJ)	!	!
.	.	.	.	.	.	16a-/JJ)	.	.
=11	=11	=11	=11	=11	=11	=11	=11	=11
!	!	!	!	!LO:MO:mod=4A	!	!	!	!
1r	.	(4cc\	.	8A/	4F\	16f/LL	4f\	.
.	.	.	.	.	.	16f 16c 16A/	.	.
!	!	!	!	!LO:MO:mod=.	!	!	!	!
.	.	.	.	8ryyyy	.	16f 16c 16A/	.	.
.	.	.	.	.	.	16fJJ 16c 16A/	.	.
*	*	*	*	*	*	*tremolo	*	*
.	.	4ff\)	.	4r	2.ryyyy	16fLL 16c 16A/	4ryyyy	.
.	.	.	.	.	.	16f 16c 16A/	.	.
.	.	.	.	.	.	16f 16c 16A/	.	.
.	.	.	.	.	.	16fJJ 16c 16A/	.	.
.	.	.	.	16qqAA/LL	.	.	.	.
.	.	.	.	16qqC#X/JJ	.	.	.	.
.	.	(>4f/	.	4DT\	.	8fL 8d 8A/	2ryyyy	.
.	.	.	.	.	.	8fJ 8d 8A/	.	.
.	.	.	.	16qqC#/LL	.	.	.	.
.	.	.	.	16qqD/JJ	.	.	.	.
.	.	4gT/	.	4C#X/	.	8eL 8A/	.	.
.	.	.	.	.	.	8eJ 8A/	.	.
*	*	*	*	*v	*v	*	*	*
*	*	*	*	*	*v	*v	*
.	.	16qqf/LL	.	.	.	.
.	.	16qqg/JJ	.	.	.	.
*clefG2	*	*	*	*	*	*
=12	=12	=12	=12	=12	=12	=12
.	.	.	.	16qqBBn/LL	.	.
.	.	.	.	16qqC/	.	.
.	.	.	.	16qqD/JJ	.	.
(4cc\	.	4a/)	.	2CT/	16f#XLL 16d 16A/	.
.	.	.	.	.	16f# 16d 16A/	.
.	.	.	.	.	16f# 16d 16A/	.
.	.	.	.	.	16f# 16d 16A/	.
!LO:SIC:s=[4aa)	!	!	!	!	!	!
[4aa\	.	4r	.	.	16f# 16d 16A/	.
.	.	.	.	.	16f# 16d 16A/	.
.	.	.	.	.	16f# 16d 16A/	.
.	.	.	.	.	16f#JJ 16d 16A/	.
*	*	*	*	*	*Xtremolo	*
.	.	.	.	16qqBB/LL	.	.
.	.	.	.	16qqC/JJ	.	.
!LO:SIC:s=(32aaLLL]	!	!	!	!	!	!
(32aa\LLL])	.	2r	.	8BB-X/	8g 8d 8G/	.
32gg\	.	.	.	.	.	.
32bb-\	.	.	.	.	.	.
32aa\	.	.	.	.	.	.
32gg\	.	.	.	8r	8r	.
32ff\	.	.	.	.	.	.
32ee\	.	.	.	.	.	.
32dd\JJJ	.	.	.	.	.	.
32cc\LLL)	.	.	.	8C/	8g 8c 8B-/	.
(32cc#X\	.	.	.	.	.	.
32ee\	.	.	.	.	.	.
32dd\	.	.	.	.	.	.
32ccn\	.	.	.	8r	8r	.
32b-\	.	.	.	.	.	.
32d\	.	.	.	.	.	.
32e\JJJ	.	.	.	.	.	.
=13	=13	=13	=13	=13	=13	=13
*	*	*	*	*^	*	*
!	!	!	!	!LO:TX:t=P:problem=mixed beam	!	!	!
4f/)	.	1r	.	16FF/LL	4ryyyy	(4ccc 4cc\	.
.	.	.	.	16c 16A 16F\	.	.	.
.	.	.	.	16c 16A 16F\	.	.	.
.	.	.	.	16cJJ 16A 16F\	.	.	.
*	*	*	*	*tremolo	*	*	*
4r	.	.	.	16cLL 16A 16F\	4ryyyy	4fff 4ff\	.
.	.	.	.	16c 16A 16F\	.	.	.
.	.	.	.	16c 16A 16F\	.	.	.
.	.	.	.	16cJJ 16A 16F\	.	.	.
!	!	!	!	!	!LO:N:vis=2	!	!
2r	.	.	.	2D/	16D\LL	4ffT\)	.
.	.	.	.	.	16A 16F\	.	.
.	.	.	.	.	16A 16F\	.	.
.	.	.	.	.	16AJJ 16F\	.	.
.	.	.	.	.	.	16qqee/LL	<
.	.	.	.	.	.	16qqff/	.
.	.	.	.	.	.	16qqgg/JJ	.
.	.	.	.	.	16ALL 16F\	(16aa\LL	.
*	*	*	*	*	*	*Xtuplet	*
.	.	.	.	.	16A 16F\	48aa\L	.
!	!	!	!	!	!	!LO:SIC:v:s=48bbn\	!
.	.	.	.	.	.	48bb-\	.
!	!	!	!	!	!	!	!LO:MO:mod=.
.	.	.	.	.	.	48ccc#X\JJJ	[
!	!	!	!	!	!	!	!LO:MO:mod=.
.	.	.	.	.	16A 16F\	16ddd\LL)	<
.	.	.	.	.	.	16qqddd/LL	.
.	.	.	.	.	.	16qqeee/	.
.	.	.	.	.	.	16qqfff/	.
.	.	.	.	.	.	16qqggg/JJ	.
.	.	.	.	.	16AJJ 16F\	16aaa\JJ	[
=14	=14	=14	=14	=14	=14	=14	=14
*	*	*	*	*	*	*8va	*
!	!	!	!	!	!LO:N:vis=2	!	!
(2ff\	.	(>2a-X/	.	2BBn/	16BBn\LL	(8dddd\L	.
.	.	.	.	.	16d 16A-X 16F\	.	.
.	.	.	.	.	16d 16A- 16F\	64dddd\LLL)	.
.	.	.	.	.	.	64bbbn\	.
.	.	.	.	.	.	64aaa-X\	.
!	!	!	!	!	!	!LO:TX:a:t=8	!
.	.	.	.	.	.	64fff\	.
.	.	.	.	.	16dJJ 16A- 16F\	64ddd\	.
.	.	.	.	.	.	64bbny\	.
.	.	.	.	.	.	64aaa-\	.
.	.	.	.	.	.	64fff\JJJJ	.
*	*	*	*	*	*	*X8va	*
!	!	!	!	!	!	!LO:TX:a:t=loco	!
.	.	.	.	.	16dLL 16A- 16F\	([4dd\	.
.	.	.	.	.	16d 16A- 16F\	.	.
.	.	.	.	.	16d 16A- 16F\	.	.
.	.	.	.	.	16dJJ 16A- 16F\	.	.
*	*	*	*	*	*Xtremolo	*	*
8ff\)	.	4an/	.	4C/	16C\LL	32dd\LLL]	.
.	.	.	.	.	.	32cc\	.
!	!	!	!	!	!LO:SIC:s=16c 16A 16F\	!	!
.	.	.	.	.	16c 16An 16E\	32bny\	.
.	.	.	.	.	.	32cc\	.
4cc\	.	.	.	.	16c 16A 16F\	32aa\	.
.	.	.	.	.	.	32ee\	.
.	.	.	.	.	16cJJ 16A 16F\	32ff\	.
.	.	.	.	.	.	32dd\JJJ	.
.	.	4g/	.	4C/	16C\LL	32cc\LLL	.
.	.	.	.	.	.	32cc#X\	.
.	.	.	.	.	16c 16B- 16G 16E\	32dd\	.
.	.	.	.	.	.	32a\	.
8b-\	.	.	.	.	16c 16B- 16G 16E\	32ccn\	.
.	.	.	.	.	.	32b-\	.
.	.	.	.	.	16cJJ 16B- 16G 16E\	32g\	.
.	.	.	.	.	.	32a\JJJ	.
*	*	*	*	*v	*v	*	*
=	=	=	=	=	=	=
4a\	.	4f/)	.	8cL 8F 8C\	8f/L)	.
.	.	.	.	16r	16r	.
*	*	*	*	*Xtuplet	*	*
.	.	.	.	48C\LL	48c/LL	.
.	.	.	.	48D\	48d/	f
.	.	.	.	48E\JJJ	48e/JJJ	.
4r	.	4r	.	8.FT\L	8.fT/L	.
.	.	.	.	48E\LL	48e/LL	.
.	.	.	.	48D\	48d/	.
.	.	.	.	48C\JJJ	48c/JJJ	.
!!LO:PB:g=original
=15	=15	=15	=15	=15	=15	=15
2r	.	(4gg\	.	8BBn/L	8Bnt/L	.
.	.	.	.	16.r	16.r	.
.	.	.	.	64GG/LLL	64G/LLL	.
.	.	.	.	64AA/JJJJ	64A/JJJJ	.
.	.	4ddd\)	.	4BBt/	4Bt/	.
.	.	.	.	16qqAA/LL	16qqA/LL	.
.	.	.	.	16qqBB/JJ	16qqB/JJ	.
=16	=16	=16	=16	=16	=16	=16
(4ee\	.	(4ccc\	.	8C\L	8c/L	.
.	.	.	.	16.r	16.r	.
.	.	.	.	64C\LLL	64c/LLL	.
.	.	.	.	64D\JJJJ	64d/JJJJ	.
4gg\)	.	4bb-\)	.	4Et\	4et/	.
.	.	.	.	16qqD/LL	16qqd/LL	.
.	.	.	.	16qqE/JJ	16qqe/JJ	.
(4ff\	.	(4aa\	.	8F\L	8f/L	.
.	.	.	.	16r	16r	.
.	.	.	.	48C\LL	48c/LL	.
.	.	.	.	48D\	48d/	.
.	.	.	.	48E\JJJ	48e/JJJ	.
4ee-X\	.	8ccc\L)	.	8.FT\L	8.fT/L	.
.	.	([8ff\J	.	.	.	.
!	!	!	!	!LO:SIC:v:s=48E-\LL	!	!
.	.	.	.	48E\LL	48e-X/LL	.
.	.	.	.	48D\	48d/	.
.	.	.	.	48C\JJJ	48c/JJJ	.
=17	=17	=17	=17	=17	=17	=17
4dd\)	p	4ff\]	p	8BB-/L	16B-/LL	.
.	.	.	.	.	16f 16d 16B-/	p
.	.	.	.	16.r	16f 16d 16B-/	.
.	.	.	.	.	16fJJ 16d 16B-/	.
!	!	!	!	!LO:MO:mod=*null:null	!	!
*	*	*	*	*tuplet	*	*
!	!	!	!	!LO:TUP:a:problem=klamra łukowa	!	!
.	.	.	.	96FF/LLL	.	.
.	.	.	.	96GG/	.	.
.	.	.	.	96AA/JJJJ	.	.
*	*	*	*	*	*tremolo	*
4r	.	8bb-\)	.	4BB-T/	16fLL 16d 16B-/	.
.	.	.	.	.	16f 16d 16B-/	.
!LO:TX:Bi:t=poco a poco cres-:problem=dynamics with extention lines	!LO:HP:a:t=poco a pooco cres-	!LO:N:vis=16	!	!	!	!
.	<	8r	.	.	16f 16d 16B-/	.
.	.	.	.	.	16fJJ 16d 16B-/	.
.	.	.	.	16qqAA/LL	.	.
.	.	.	.	16qqBB-/JJ	.	.
(4dd\	.	(4ggT\	.	8BBn/L	16fLL 16d 16G/	.
.	.	.	.	.	16f 16d 16G/	.
!	!	!	!	!LO:N:vis=16.	!	!
.	.	.	.	16r	16f 16d 16G/	.
!	!	!	!	!LO:TX:Bi:t=poco a poco cres-:problem=dynamics with extention lines	!	!LO:HP:t=poco a pooco cres-
.	.	.	.	64GG/LLL	16fJJ 16d 16G/	<
.	.	.	.	64AA/	.	.
.	.	.	.	64BB/	.	.
.	.	.	.	64C/JJJJ	.	.
!	!	!LO:SIC:s=16qqff#X/LL	!	!	!	!
.	.	16qqff#X/LL)	.	.	.	.
.	.	16qqgg/JJ	.	.	.	.
!	!	!LO:SIC:s=8g)	!	!	!	!
4gg\)	.	8g/	.	8D/L	16fLL 16d 16G/	.
.	.	.	.	.	16f 16d 16G/	.
.	.	8r	.	8BBt/J	16f 16d 16G/	.
.	.	.	.	.	16fJJ 16d 16G/	.
*	*	*	*	*	*Xtremolo	*
.	.	.	.	16qqAA/LL	.	.
.	.	.	.	16qqBB/JJ	.	.
=18	=18	=18	=18	=18	=18	=18
!LO:SIC:s=(4ee-T	!	!	!	!	!	!
4ee-XT\	.	(4gg\	.	8C/L	16e-XLL 16d 16G/	.
.	.	.	.	.	16e- 16d 16G/	.
!	!	!	!	!	!LO:SIC:v:s=16e- 16c 16G/	!
.	.	.	.	16.r	16e- 16B- 16G/	.
.	.	.	.	.	16e-JJ 16Bn 16G/	.
*	*	*	*	*Xtuplet	*	*
.	.	.	.	96GG/LLL	.	.
.	.	.	.	96AA/	.	.
.	.	.	.	96BBn/JJJJ	.	.
16qqdd/LL	.	.	.	.	.	.
16qqee-/JJ	.	.	.	.	.	.
!LO:SIC:s=8cc)	!	!	!	!	!	!
8cc\	.	8ccc\)	.	4CT/	16e-LL 16c 16G/	.
.	.	.	.	.	16e- 16c 16G/	.
8r	.	8r	.	.	16en 16c 16G/	.
.	.	.	.	.	16eJJ 16c 16G/	.
.	.	.	.	16qqBB/LL	.	.
.	.	.	.	16qqC/JJ	.	.
*	*	*	*	*	*tremolo	*
!	!	!LO:TX:a:t=P:problem=bemol pod trylem	!	!	!	!
!LO:SIC:s=(4een	!	!LO:SIC:s=(4aat	!	!	!	!
4een\	.	4aat\	.	8C#X/L	16eLL 16A/	.
.	.	.	.	.	16e 16A/	.
.	.	.	.	16.r	16e 16A/	.
.	.	.	.	.	16eJJ 16A/	.
.	.	.	.	64AA/LLL	.	.
.	.	.	.	64BBn/JJJJ	.	.
!	!	!LO:SIC:s=16qqgg#/LL	!	!	!	!
.	.	(>16qqgg#/LL	.	.	.	.
!	!	!LO:SIC:s=16qqaa/JJ	!	!	!	!
.	.	16qqaa/JJ)	.	.	.	.
!LO:SIC:s=4aa)	!	!LO:SIC:s=8a)	!	!	!	!
4aa'\	.	8a/	.	4C#t/	16gLL 16e 16A/	.
.	.	.	.	.	16g 16e 16A/	.
.	.	8r	.	.	16g 16e 16A/	.
.	.	.	.	.	16gJJ 16e 16A/	.
.	.	.	.	16qqBB/LL	.	.
.	.	.	.	16qqC#/JJ	.	.
=19	=19	=19	=19	=19	=19	=19
!LO:SIC:s=(4ffT	!	!	!	!	!	!
4ffT\	.	(4aa\	.	8D/L	16fLL 16d 16A/	.
.	.	.	.	.	16f 16e 16A/	.
.	.	.	.	16.r	16f 16d 16A/	.
.	.	.	.	.	16eJJ 16c#X 16A/	.
!	!	!	!	!LO:MO:mod=*null:null	!	!
*	*	*	*	*tuplet	*	*
!	!	!	!	!LO:TUP:b:problem=klamra łukowa	!	!
.	.	.	.	96AA/LLL	.	.
.	.	.	.	96BBn/	.	.
.	.	.	.	96C#X/JJJJ	.	.
16qqee/LL	.	.	.	.	.	.
16qqff/JJ	.	.	.	.	.	.
!LO:SIC:s=8dd)	!	!	!	!	!	!
8dd\	.	8ddd\)	.	4DT/	16fLL 16d 16A/	.
.	.	.	.	.	16f 16d 16A/	.
8r	.	8r	.	.	16f 16d 16A/	.
.	.	.	.	.	16fJJ 16d 16A/	.
.	.	.	.	16qqC#/LL	.	.
.	.	.	.	16qqD/JJ	.	.
!LO:SIC:s=(16ff#LL	!	!LO:SIC:s=(4bbnt	!	!	!	!
(16ff#X'\LL	.	4bbnt\	.	8D#X/L	16aLL 16f#X 16Bn/	[
64b-\LL	.	.	.	.	16a 16f# 16B/	.
64cc#X\	.	.	.	.	.	.
64dd#X\	.	.	.	.	.	.
64ee\JJ	[	.	.	.	.	.
16ff#\JJ)	.	.	.	16.r	16a 16f# 16B/	.
16r	.	.	.	.	16aJJ 16f# 16B/	.
!	!	!	!	!LO:SIC:s=64BB/LLL	!	!
.	.	.	.	64BBn/LLL	.	.
!	!	!	!	!LO:SIC:s=64C#/JJJJ	!	!
.	.	.	.	64C#X/JJJJ	.	.
!	!	!LO:SIC:s=16qqaa#X/LL	!	!	!	!
.	.	(>16qqaa#X/LL	.	.	.	.
!	!	!LO:SIC:s=16qqbb/JJ	!	!	!	!
.	.	16qqbb/JJ)	.	.	.	.
!	!	!LO:SIC:s=8bn)	!	!	!	!
16r	.	8bn\	.	4D#t/	16aLL 16f# 16B/	.
(64ff#\LLLL	.	.	.	.	16a 16f# 16B/	.
64ee\	.	.	.	.	.	.
64dd#\	.	.	.	.	.	.
64cc#\JJJJ	.	.	.	.	.	.
16b-/LL)	.	8r	.	.	16a 16f# 16B/	.
(64b-/LL	.	.	.	.	16aJJ 16f# 16B/	.
64a/	.	.	.	.	.	.
64g/	.	.	.	.	.	.
!LO:SIC:v:s=64f#JJJJ)	!	!	!	!	!	!
!LO:SIC:s=64f#JJJJ	!	!	!	!	!	!
64f/JJJJ)	.	.	.	.	.	.
.	.	.	.	16qqC#/LL	.	.
.	.	.	.	16qqD#/JJ	.	.
=20	=20	=20	=20	=20	=20	=20
!LO:SIC:s=8e)	!	!	!LO:MO:mod=.	!	!	!
8e/	.	16r	<	8E\L	16gLL 16f 16B-/	.
!	!	!LO:TUP:a	!LO:MO:null:mod=<	!	!	!
.	.	(48bbn\LLL	.	.	16g 16f 16B-/	.
.	.	48ccc#X\	.	.	.	.
!	!	!	!LO:MO:mod=.	!	!	!
.	.	48ddd#X\JJ	[	.	.	.
!	!	!	!LO:MO:null:mod=[	!	!	!
8r	.	8eee'\J)	.	16.r	16g 16e 16B-/	.
.	.	.	.	.	16gJJ 16d#X 16B-/	.
*	*	*	*	*Xtuplet	*	*
!	!	!	!	!LO:SIC:v:s=96BBn\LLL	!	!
.	.	.	.	96BB-\LLL	.	.
.	.	.	.	96C#X\	.	.
.	.	.	.	96D#X\JJJJ	.	.
*clefF4	*	*	*	*	*	*
16r	.	4r	.	4ET\	16gLL 16e 16B-/	.
!LO:TUP:a	!	!	!	!	!	!
!LO:SIC:v:s=(48Bn\LLL	!	!	!	!	!	!
(48B-\LLL	<	.	.	.	16g 16e 16B-/	.
48c#X\	.	.	.	.	.	.
48d#X\JJ	.	.	.	.	.	.
8e'\J)	[	.	.	.	16g 16e 16B-/	.
.	.	.	.	.	16gJJ 16e 16B-/	.
.	.	.	.	16qqD#/LL	.	.
.	.	.	.	16qqE/JJ	.	.
!	!	!	!	!LO:SIC:v:s=8C/L	!	!
4r	.	16r	.	8C#/L	16gLL 16e 16c/	.
!	!	!LO:TUP:a	!	!	!	!
.	.	(48gg\LLL	<	.	16g 16e 16c/	.
.	.	48aa\	.	.	.	.
!	!	!LO:SIC:v:s=48bb-\JJ	!	!	!	!
.	.	48bb\JJ	.	.	.	.
!	!	!LO:SIC:v:s=8ccc'\J)	!	!	!	!
.	.	8ccc#'\J)	[	16.r	16g 16e 16c/	.
.	.	.	.	.	16gJJ 16e 16c/	.
*	*	*	*	*tuplet	*	*
!	!	!	!	!LO:TUP:a:problem=klamra łukowa	!	!
.	.	.	.	96GG/LLL	.	.
.	.	.	.	96AA/	.	.
.	.	.	.	96BB-/JJJJ	.	.
!	!	!	!	!LO:SIC:v:s=4CnT/	!	!
16r	.	4r	.	4C#T/	16gLL 16e 16c/	.
!LO:TUP:a	!	!	!	!	!	!
(48G\LLL	<	.	.	.	16g 16e 16c/	.
48A\	.	.	.	.	.	.
48B-\JJ	.	.	.	.	.	.
!LO:SIC:v:s=8c'\J)	!	!	!	!	!	!
8c#'\J)	[	.	.	.	16g 16e 16c/	.
.	.	.	.	.	16gJJ 16e 16c/	.
.	.	.	.	16qqBB-/LL	.	.
!	!	!	!	!LO:SIC:v:s=16qqC/JJ	!	!
.	.	.	.	16qqC#/JJ	.	.
!!LO:PB:g=original
=21	=21	=21	=21	=21	=21	=21
!	!	!LO:SIC:s=16r	!	!	!	!
4r	.	(>16r	.	8AA/L	16aLL 16e 16c/	.
!	!	!LO:TUP:a	!	!	!	!
!	!	!LO:SIC:s=(48eeLLL	!LO:MO:null:mod=<	!	!	!
.	.	48ee\LLL	.	.	16a 16e 16c/	.
.	.	48ff#X\	.	.	.	.
.	.	48gg#X\JJ	.	.	.	.
!	!	!	!LO:MO:null:mod=[	!	!	!
.	.	8aa'\J)	.	16.r	16a 16e 16c/	.
.	.	.	.	.	16aJJ 16e 16c/	.
!	!	!	!	!LO:TUP:a:problem=klamra łukowa	!	!
.	.	.	.	96EE/LLL	.	.
.	.	.	.	96FF#X/	.	.
.	.	.	.	96GG#X/JJJJ	.	.
!LO:SIC:s=16r	!	!	!	!	!	!
(>16r	.	4r	.	4AAt/	16aLL 16e 16c/	.
!LO:TUP:a	!	!	!	!	!	!
!LO:SIC:s=(48ELLL	!LO:MO:null:mod=<	!	!	!	!	!
48E\LLL	.	.	.	.	16a 16e 16c/	.
48F#X\	.	.	.	.	.	.
48G#X\JJ	.	.	.	.	.	.
!	!LO:MO:null:mod=[	!	!	!	!	!
8A'\J)	.	.	.	.	16a 16e 16c/	.
.	.	.	.	.	16aJJ 16e 16c/	.
.	.	.	.	16qqGG#/LL	.	.
.	.	.	.	16qqAA/JJ	.	.
2r	.	16r	.	8FF#X/L	16aLL 16e-X 16c/	.
.	.	(32ff#X\LLL	.	.	16a 16e- 16c/	.
.	.	32gg#\	.	.	.	.
.	.	32aa\	.	16.r	16a 16e- 16c/	.
!	!	!LO:SIC:v:s=32bbn\J	!	!	!	!
.	.	32bb-\J	.	.	.	.
.	.	16ccc'\JJ)	.	.	16aJJ 16e- 16c/	.
.	.	.	.	64DD/LLL	.	.
.	.	.	.	64EE/JJJJ	.	.
.	.	4d/	.	4FF#T/	16aLL 16d 16c/	.
.	.	.	.	.	16a 16d 16c/	.
.	.	.	.	.	16a 16d 16c/	.
.	.	.	.	.	16aJJ 16d 16c/	.
*	*	*	*	*	*Xtremolo	*
.	.	.	.	16qqEE/LL	.	.
.	.	.	.	16qqFF#/JJ	.	.
=22	=22	=22	=22	=22	=22	=22
!	!LO:DY:a	!	!LO:DY:a	!	!	!
!	!LO:MO:mod=.	!	!	!	!	!
1r	f	4G/	f	16GG/	8g 8d 8B-/	f
!	!	!	!	!LO:SIC:v:s=16BLL 16G 16D\	!	!
.	.	.	.	16BnLL 16G 16E 16D\	.	.
!	!	!	!	!	!LO:SIC:s=16r	!
.	.	.	.	16B 16G 16D\	(>16r	.
!	!	!	!	!	!LO:TUP:a:problem=klamra łukowa	!
!	!	!	!	!	!LO:SIC:s=(48ddLLL	!
.	.	.	.	16BJJ 16G 16D\	48dd\LLL	.
.	.	.	.	.	48ee\	.
!	!	!	!	!	!LO:SIC:s=48ff#X\JJJ	!
.	.	.	.	.	48ff#X\JJJ)	.
!	!	!	!	!	!LO:SIC:s=16gg'\LL)	!
.	.	4r	.	16BLL 16G 16D\	16gg'\LL	.
.	.	.	.	16B 16G 16D\	(64gg\LL	.
.	.	.	.	.	64aa\	.
.	.	.	.	.	64bbn\	.
.	.	.	.	.	64ccc\JJJJ	.
!	!	!	!	!	!LO:N:vis=8	!
.	.	.	.	16B 16G 16D\	16ddd'\LL)	.
*	*	*	*	*	*8va	*
.	.	.	.	16BJJ 16G 16D\	(80bbny\LL	.
.	.	.	.	.	80ccc\	.
.	.	.	.	.	80ddd\	.
.	.	.	.	.	80eee\	.
.	.	.	.	.	80fff#X\JJJJ	.
!	!	!	!	!	!LO:SIC:s=8ggg\')	!
.	.	2r	.	16GG/	8ggg\)	.
.	.	.	.	16BLL 16G 16D\	.	.
.	.	.	.	16B 16G 16D\	4.dddT\	.
.	.	.	.	16BJJ 16G 16D\	.	.
*	*	*	*	*tremolo	*	*
.	.	.	.	16BLL 16G 16D\	.	.
.	.	.	.	16B 16G 16D\	.	.
.	.	.	.	16B 16G 16D\	.	.
.	.	.	.	16BJJ 16G 16D\	.	.
*	*	*	*	*Xtremolo	*	*
.	.	.	.	.	(>16qqccc#X/LL	.
.	.	.	.	.	16qqddd/	.
.	.	.	.	.	16qqggg/	.
.	.	.	.	.	16qqbbb/JJ)	.
=23	=23	=23	=23	=23	=23	=23
!	!	!	!	!	!LO:N:vis=8..	!
1ryy	.	1r	.	16DD/	8.dddd\L	.
!	!	!	!	!LO:SIC:v:s=16cLL 16A 16F# 16D\	!	!
.	.	.	.	16cLL 16A 16F 16D\	.	.
!	!	!	!	!LO:SIC:s=16c 16A 16F# 16D\	!	!
.	.	.	.	16c 16A 16F 16D\	.	.
!	!	!	!	!LO:SIC:v:s=16cJJ 16A 16F# 16D\	!	!
.	.	.	.	16cJJ 16A 16F 16D\	(48cccc\LL	.
.	.	.	.	.	48ggg#X\	.
.	.	.	.	.	48aaa\JJJ	.
*	*	*	*	*tremolo	*	*
.	.	.	.	16cLL 16A 16D\	32bbbn\LLL	.
.	.	.	.	.	32aaa\	.
.	.	.	.	16c 16A 16D\	32eee#X\	.
.	.	.	.	.	32fff#X\	.
!	!	!	!	!	!LO:SIC:v:s=32gggn\	!
.	.	.	.	16c 16A 16D\	32ggg#\	.
.	.	.	.	.	32fff#\	.
.	.	.	.	16cJJ 16A 16D\	32ccc#X\	.
*	*	*	*	*Xtremolo	*	*
.	.	.	.	.	32ddd\JJJ	.
.	.	.	.	16DD/	32eeen\LLL	.
.	.	.	.	.	32ddd\	.
*	*	*	*	*	*X8va	*
!	!	!	!	!LO:SIC:v:s=16cLL 16A 16F# 16D\	!LO:TX:a:t=loco	!
.	.	.	.	16cLL 16A 16F 16D\	32bb\	.
.	.	.	.	.	32ccc\	.
!	!	!	!	!LO:SIC:v:s=16c 16A 16F# 16D\	!	!
.	.	.	.	16c 16A 16F 16D\	32gg#X\	.
.	.	.	.	.	32aa\	.
!	!	!	!	!LO:SIC:v:s=16cJJ 16A 16F# 16D\	!	!
.	.	.	.	16cJJ 16A 16F 16D\	32ee#X\	.
.	.	.	.	.	32ff#X\JJJ	.
*	*	*	*	*tremolo	*	*
.	.	.	.	16cLL 16A 16D\	32cc#X\LLL	.
.	.	.	.	.	32dd\	.
.	.	.	.	16c 16A 16D\	32b-\	.
.	.	.	.	.	32ccn\	.
.	.	.	.	16c 16A 16D\	32g#X\	.
.	.	.	.	.	32a\	.
.	.	.	.	16cJJ 16A 16D\	32e\	.
*	*	*	*	*Xtremolo	*	*
.	.	.	.	.	32f#X\JJJ	.
=24	=24	=24	=24	=24	=24	=24
!	!	!	!	!	!LO:SIC:s=8gL)	!
(4d\	.	1r	.	16GG/	8g/L	.
.	.	.	.	16BnLL 16G 16D\	.	.
!	!	!	!	!	!LO:TUP:a:problem=klamra łukowa	!
.	.	.	.	16B 16G 16D\	24r	.
.	.	.	.	.	&(48g/LL	.
.	.	.	.	16BJJ 16G 16D\	48a/	.
!	!	!	!	!	!LO:SIC:v:s=48b/)	!
.	.	.	.	.	48b-/)	.
.	.	.	.	.	48cc/JJJ	.
*	*	*	*	*tremolo	*	*
!	!	!	!	!	!LO:N:vis=8	!
!	!	!	!	!	!LO:SIC:v:s=16dd'\LL	!
!	!	!	!	!	!LO:SIC:s=16dd'LL&)	!
4g\)	.	.	.	16BLL 16G 16D\	16cc'\LL	.
!	!	!	!	!	!LO:TUP:a:problem=klamra łukowa	!
.	.	.	.	16B 16G 16D\	96r	.
!	!	!	!	!	!LO:SIC:v:s=96b\LL	!
!	!	!	!	!	!LO:SIC:s=(96bLL	!
.	.	.	.	.	96b-\LL	.
!	!	!	!	!	!LO:SIC:s=96cc	!
.	.	.	.	.	(96cc\	.
!	!	!	!	!	!LO:SIC:s=96dd	!
.	.	.	.	.	96dd\&)	.
.	.	.	.	.	96ee\	.
.	.	.	.	.	96ff#X\JJJJ	.
!	!	!	!	!	!LO:SIC:s=16gg'LL)	!
.	.	.	.	16B 16G 16D\	16gg'\LL	.
!	!	!	!	!	!LO:TUP:a:problem=klamra łukowa	!
.	.	.	.	16BJJ 16G 16D\	80r	.
*	*	*	*	*Xtremolo	*	*
!	!	!	!	!	!LO:SIC:s=(80ggLL	!
.	.	.	.	.	80gg\LL	.
.	.	.	.	.	80aa\	.
!	!	!	!	!	!LO:SIC:v:s=80bb\	!
.	.	.	.	.	80bb-\	.
.	.	.	.	.	80ccc\JJJJ	.
!LO:SIC:v:s=2BT\	!	!	!	!	!	!
2B-T\	.	.	.	16GG/	8ddd'\)	.
.	.	.	.	16BLL 16G 16D\	.	.
*	*	*	*	*	*8va	*
.	.	.	.	16B 16G 16D\	(4.dddT\	.
.	.	.	.	16BJJ 16G 16D\	.	.
*	*	*	*	*tremolo	*	*
.	.	.	.	16BLL 16G 16D\	.	.
.	.	.	.	16B 16G 16D\	.	.
.	.	.	.	16B 16G 16D\	.	.
.	.	.	.	16BJJ 16G 16D\	.	.
*	*	*	*	*Xtremolo	*	*
.	.	.	.	.	16qqccc#X/LL	.
.	.	.	.	.	16qqddd/	.
16qqA/LL	.	.	.	.	16qqggg/	.
!LO:SIC:v:s=16qqB/JJ	!	!	!	!	!LO:SIC:v:s=16qqbbb/JJ	!
16qqB-/JJ	.	.	.	.	16qqbbb-/JJ	.
!!LO:PB:g=original
=25	=25	=25	=25	=25	=25	=25
(1c	.	(4dd\	.	16DD/	[8dddd\L	.
!	!	!	!	!LO:SIC:v:s=16cLL 16A 16F# 16D\	!	!
.	.	.	.	16cLL 16A 16F 16D\	.	.
!	!	!	!	!LO:SIC:v:s=16c 16A 16F# 16D\	!	!
.	.	.	.	16c 16A 16F 16D\	32dddd\LL]	.
.	.	.	.	.	32cccc\	.
!	!	!	!	!LO:SIC:v:s=16cJJ 16A 16F# 16D\	!LO:SIC:v:s=32ggg#\	!
.	.	.	.	16cJJ 16A 16F 16D\	32bbb-\	.
!	!	!	!	!	!LO:SIC:v:s=32aaa\JJJ	!
.	.	.	.	.	32ggg#X\JJJ	.
*	*	*	*	*tremolo	*	*
!	!	!	!	!LO:SIC:v:s=16cLL 16A 16F# 16D\	!LO:SIC:v:s=32bbb\LLL	!
.	.	4aa\)	.	16cLL 16A 16F 16D\	32bbb-\LLL	.
.	.	.	.	.	32aaa\	.
!	!	!	!	!LO:SIC:v:s=16c 16A 16F# 16D\	!	!
.	.	.	.	16c 16A 16F 16D\	32eee#X\	.
.	.	.	.	.	32fff#X\	.
!	!	!	!	!LO:SIC:v:s=16c 16A 16F# 16D\	!LO:SIC:v:s=32gggn\	!
.	.	.	.	16c 16A 16F 16D\	32ggg#\	.
.	.	.	.	.	32fff#\	.
!	!	!	!	!LO:SIC:v:s=16cJJ 16A 16F# 16D\	!	!
.	.	.	.	16cJJ 16A 16F 16D\	32ccc#X\	.
.	.	.	.	.	32ddd\JJJ	.
.	.	2f#Xt/	.	16DD/	32eeen\LLL	.
.	.	.	.	.	32ddd\	.
*	*	*	*	*	*X8va	*
!	!	!	!	!LO:MO:mod=!null:null	!	!
!	!	!	!	!LO:N:vis=4.	!LO:TX:a:t=loco	!
!	!	!	!	!	!LO:SIC:v:s=32bb\	!
.	.	.	.	16cLL 16A 16C\	32bb-\	.
.	.	.	.	.	32ccc\	.
.	.	.	.	16c 16A 16C\	32gg#X\	.
.	.	.	.	.	32aa\	.
.	.	.	.	16cJJ 16A 16C\	32ee#X\	.
.	.	.	.	.	32ff#\JJJ	.
.	.	.	.	16cLL 16A 16D\	32cc#X\LLL	.
.	.	.	.	.	32dd\	.
!	!	!	!	!	!LO:SIC:v:s=32b\	!
.	.	.	.	16c 16A 16D\	32b-\	.
!	!	!	!	!	!LO:SIC:s=32cc\	!
.	.	.	.	.	32cc#\	.
.	.	.	.	16c 16A 16D\	32g#X\	.
.	.	.	.	.	32a\	.
.	.	.	.	16cJJ 16A 16D\	32en\	.
.	.	.	.	.	32f#X\JJJ	.
.	.	16qqe/LL	.	.	.	.
.	.	16qqf#/JJ	.	.	.	.
=26	=26	=26	=26	=26	=26	=26
*	*	*	*	*^	*	*
!	!LO:MO:null:mod=!LO&colon;DY&colon;ed=brack	!	!	!	!	!	!
!	!	!	!	!	!	!LO:MO:mod=!LO&colon;TX&colon;b&colon;i&colon;t=ed energico	!
!	!LO:MO:null:mod=f	!	!	!	!LO:N:vis=2	!null	!
4B-\)	.	4g/	f	2G/	16G\LL	16g\LL)	f
!	!	!	!	!	!LO:SIC:v:s=16d 16Bn\	!LO:TUP:a:problem=klamra łukowa	!
.	.	.	.	.	16d 16B-\	96r	.
!	!	!	!	!	!	!LO:SIC:v:s=(96bn\LL	!
.	.	.	.	.	.	(96b-\LL	<
.	.	.	.	.	.	96cc\	.
.	.	.	.	.	.	96dd\	.
!LO:MO:mod=!null:null	!	!	!	!	!	!LO:MO:mod=!null:null	!
!LO:TX:a:t=ed energico	!	!	!	!	!	!LO:TX:b:t=e energico	!
.	.	.	.	.	.	96ee\	.
.	.	.	.	.	.	96ff#X\JJJJ	.
!	!	!	!	!	!LO:SIC:v:s=16d 16B\	!	!
.	.	.	.	.	16d 16B-\	8gg'\L)	[
!	!	!	!	!	!LO:SIC:v:s=16dJJ 16B\	!	!LO:MO:mod=.
.	.	.	.	.	16dJJ 16B-\	.	<
!	!	!	!	!	!LO:SIC:v:s=16dLL 16B\	!LO:TUP:a:problem=klamra łukowa	!
4r	.	4r	.	.	16dLL 16B-\	96r	.
!	!	!	!	!	!	!LO:SIC:v:s=(96bb\LLL	!LO:MO:null:mod=<
.	.	.	.	.	.	(96bb-\LLL	.
.	.	.	.	.	.	96ccc\	.
.	.	.	.	.	.	96ddd\	.
.	.	.	.	.	.	96eee\	.
.	.	.	.	.	.	96fff#y\JJJJ	.
!	!	!	!	!	!	!LO:TX:t=P:problem=mixed beam	!
!	!	!	!	!	!LO:SIC:v:s=16d 16B\	!LO:SIC:s=16ggg'\\LL)	!
.	.	.	.	.	16d 16B-\	16ggg\LL)	[
!	!	!	!	!	!LO:SIC:v:s=16d 16B\	!LO:N:vis=32	!
.	.	.	.	.	16d 16B-\	16r	.
!	!	!	!	!	!LO:SIC:v:s=16dJJ 16B\	!LO:N:vis=32	!
.	.	.	.	.	16dJJ 16B-\	16g//JJ	.
*	*	*Xtuplet	*	*	*Xtremolo	*	*
!	!	!LO:MO:mod=!LO&colon;TX&colon;b&colon;i&colon;t=ed energico	!	!	!	!	!
!	!	!null	!	!	!	!	!
8GG/L	.	16a-X\LL	.	8G/L	16G^\LL	4a-XT/	fz
.	.	112r	.	.	16e-X 16c\	.	.
.	.	(112b-X\LL	.	.	.	.	.
.	.	112cc\	.	.	.	.	.
.	.	112dd-X\	.	.	.	.	.
.	.	112ee-X\	.	.	.	.	.
.	.	112ff\	.	.	.	.	.
.	.	112gg\JJJJ	.	.	.	.	.
!	!	!LO:SIC:s=16aaLL')	!	!	!	!	!
8GG-X/J	.	16aa\LL)	.	8G-X/J	16G-^\	.	.
.	.	96r	.	.	16e-JJ 16c\	.	.
.	.	(96ee-\LL	.	.	.	.	.
.	.	96ff\	.	.	.	.	.
.	.	96gg\	.	.	.	.	.
.	.	96aa\	.	.	.	.	.
!	!	!LO:SIC:s=96bb-JJJJ	!	!	!	!	!
.	.	96bb-\JJJJ)	.	.	.	.	.
.	.	.	.	.	.	16qqg/LL	.
.	.	.	.	.	.	16qqa-/JJ	.
!	!	!LO:TX:t=P:problem=mixed beam	!	!	!	!	!
!	!	!LO:SIC:s=8ccc'\\L)	!	!	!	!	!
4FF/	.	8ccc\L	.	4F/	16F\LL	4ant/	fz
.	.	.	.	.	16e- 16c\	.	.
.	.	(<8e-XT//J	.	.	16e- 16c\	.	.
.	.	.	.	.	16e-JJ 16c\	.	.
!	!	!	!	!	!	!	!
.	.	.	.	.	.	16qqg/LL	.
.	.	.	.	.	.	16qqa/JJ	.
=27	=27	=27	=27	=27	=27	=27	=27
2BB-X/	.	4d/)	.	16BB-X/	2ryyyy	16b-X\LL	.
!	!	!	!	!LO:SIC:v:s=16fLL 16d 16B-\	!	!LO:N:vis=16	!LO:MO:mod=.
.	.	.	.	16fLL 16d-X 16B-\	.	64r	<
!	!	!	!	!	!	!	!LO:MO:null:mod=<
.	.	.	.	.	.	(64b-\LL	.
.	.	.	.	.	.	64cc\	.
.	.	.	.	.	.	64dd\	.
!	!	!	!	!LO:SIC:v:s=16f 16d 16B-\	!	!	!
.	.	.	.	16f 16d- 16B-\	.	64ee-X\	.
.	.	.	.	.	.	64ff\	.
!	!	!	!	!	!	!	!LO:MO:mod=.
.	.	.	.	.	.	64gg\	[
.	.	.	.	.	.	64aa\JJJJ	.
!	!	!	!	!LO:SIC:v:s=16fJJ 16d 16B-\	!	!LO:SIC:s=16bb-'LL)	!LO:MO:mod=[
.	.	.	.	16fJJ 16d- 16B-\	.	16bb-\LL)	<
!	!	!	!	!LO:SIC:v:s=16fLL 16d 16B-\	!	!	!
.	.	4r	.	16fLL 16d- 16B-\	.	32r	.
!	!	!	!	!	!	!	!LO:MO:null:mod=<
.	.	.	.	.	.	(64bb-\LL	.
.	.	.	.	.	.	64ccc\	.
!	!	!	!	!LO:SIC:v:s=16f 16d 16B-\	!	!	!
.	.	.	.	16f 16d- 16B-\	.	64ddd\	.
!	!	!	!	!	!	!	!LO:MO:mod=.
.	.	.	.	.	.	64eee-y\	[
.	.	.	.	.	.	64fff\	.
.	.	.	.	.	.	64ggg\	.
!	!	!	!	!LO:SIC:v:s=16f 16d 16B-\	!	!	!
.	.	.	.	16f 16d- 16B-\	.	64aaa\JJJJ	.
!	!	!	!	!	!	!LO:SIC:s=16bbb-'\LL)	!LO:MO:null:mod=[
.	.	.	.	.	.	16bbb-X\LL)	.
!	!	!	!	!LO:SIC:v:s=16f 16d 16B-\	!	!	!
.	.	.	.	16fJJ 16d- 16B-\	.	.	.
!	!	!	!	!	!	!LO:N:vis=16r	!
.	.	.	.	.	.	32r	.
!	!	!	!	!	!	!LO:N:vis=32	!
.	.	.	.	.	.	64b-\JJkk	.
8AAn/L	.	16bn\LL	.	8An/L	16An\LL	4bnt\	fz
!	!	!	!	!	!LO:SIC:v:s=16f 16d\	!	!
.	.	80r	.	.	16f 16d-\	.	.
.	.	(80b\LL	.	.	.	.	.
.	.	80cc\	.	.	.	.	.
.	.	80dd\	.	.	.	.	.
.	.	80ee-X\JJJJ	.	.	.	.	.
8AA-X/J	.	16ff'\LL)	.	8A-X/J	16A-\	.	.
!	!	!LO:N:vis=64	!	!	!LO:SIC:v:s=16fJJ 16d\	!	!
.	.	128r	.	.	16fJJ 16d-\	.	.
!	!	!LO:N:vis=64	!	!	!	!	!
.	.	(128dd\LLL	.	.	.	.	.
!	!	!LO:N:vis=64	!	!	!	!	!
.	.	128ee-\	.	.	.	.	.
!	!	!LO:N:vis=64	!	!	!	!	!
.	.	128ff\	.	.	.	.	.
!	!	!LO:N:vis=64	!	!	!	!	!
.	.	128gg\	.	.	.	.	.
!	!	!LO:N:vis=64	!	!	!	!	!
.	.	128aa\	.	.	.	.	.
!	!	!LO:N:vis=64	!	!	!	!	!
.	.	128bbn\	.	.	.	.	.
!	!	!LO:N:vis=64	!	!	!	!	!
.	.	128ccc\JJJJJ	.	.	.	.	.
.	.	.	.	.	.	16qqa/LL	.
.	.	.	.	.	.	16qqb/JJ	.
!	!	!LO:TX:t=P:problem=mixed beam	!	!	!	!	!
4GG/	.	8ddd'\\L)	.	4G/	16G\LL	4bbnyT\	fz
!	!	!	!	!	!LO:SIC:v:s=16f 16d\	!	!
.	.	.	.	.	16f 16d-\	.	.
!	!	!	!	!	!LO:SIC:v:s=16f 16d\	!	!
.	.	(8f//J	.	.	16f 16d-\	.	.
!	!	!	!	!	!LO:SIC:v:s=16fJJ 16d\	!	!
.	.	.	.	.	16fJJ 16d-\	.	.
.	.	.	.	.	.	16qqaa/LL	.
.	.	.	.	.	.	16qqbb/JJ	.
=	=	=	=	=	=	=	=
!	!	!	!	!	!LO:N:vis=2	!	!
2C/	.	4e-X/)	.	2C/	16C\LL	16ccc\LL	.
.	.	.	.	.	16c 16G 16E-X\	16r	.
*	*	*	*	*	*	*8va	*
!	!	!	!	!	!	!LO:N:vis=64	!
.	.	.	.	.	16c 16G 16E-\	(32ccc\L	.
!	!	!	!	!	!	!LO:N:vis=64	!
.	.	.	.	.	.	32ddd\	.
!	!	!	!	!	!	!LO:N:vis=64	!
.	.	.	.	.	16cJJ 16G 16E-\	32eee-X\	.
!	!	!	!	!	!	!LO:N:vis=64	!
.	.	.	.	.	.	32fff\JJJ	.
*	*	*	*	*tremolo	*	*	*
!	!	!	!	!	!	!LO:SIC:s=32ggg'LLL)	!
.	.	4r	.	.	16c 16G 16E-\LL	32ggg\LLL)	.
.	.	.	.	.	.	32r	.
!	!	!	!	!	!	!LO:SIC:s=(80eee-L	!
.	.	.	.	.	16c 16G 16E-\	80eee-\L	.
.	.	.	.	.	.	80fff\	.
.	.	.	.	.	.	80ggg\	.
.	.	.	.	.	.	80aaa\	.
.	.	.	.	.	.	80bbb-\JJJJ	.
!	!	!	!	!	!	!LO:SIC:s=16cccc'LL)	!
.	.	.	.	.	16c 16G 16E-\	16cccc\LL	.
*	*	*	*	*	*	*X8va	*
.	.	.	.	.	16c 16G 16E-\JJ	32r	.
!	!	!	!	!	!	!LO:TX:a:t=loco	!
.	.	.	.	.	.	32cc\JJk	.
!!LO:PB:g=original
=28	=28	=28	=28	=28	=28	=28	=28
!	!	!LO:SIC:s=16ccLL	!	!	!LO:N:vis=2	!	!
2AA-X/	.	(16cc\LL	.	2AA-X/	16AA-\LL	8..ee-XT\L	.
.	.	112r	.	.	16c 16A-X 16E-X\	.	.
!	!	!LO:SIC:s=(112ddLL	!	!	!	!	!
.	.	112dd\LL	.	.	.	.	.
!	!LO:MO:mod=!LO&colon;HP&colon;b&colon;t=dim	!	!	!	!	!	!
!	!LO:HP:a:t=dim	!	!	!	!	!	!
.	>	112ee-X\	.	.	.	.	.
.	.	112ff\	.	.	.	.	.
.	.	112gg\	.	.	.	.	.
.	.	112aa\	.	.	.	.	.
.	.	112bbn\JJJ	.	.	.	.	.
.	.	8ccc'\J)	.	.	16c 16A- 16E-\	.	.
!	!	!	!	!	!	!	!LO:HP:t=dim
.	.	.	.	.	16cJJ 16A- 16E-\	.	>
.	.	.	.	.	.	64dd\LLL	.
.	.	.	.	.	.	(64cc\JJJJ	.
.	.	8..e-yT/L	.	.	16c 16A- 16E-\LL	8.cccc\L)	.
.	.	.	.	.	16c 16A- 16E-\	.	.
.	.	.	.	.	16c 16A- 16E-\	.	.
.	.	.	.	.	16c 16A- 16E-\JJ	16ff#X\Jk	.
*	*	*	*	*	*Xtremolo	*	*
.	.	64d/LLL	.	.	.	.	.
.	.	64c/JJJJ	.	.	.	.	.
=29	=29	=29	=29	=29	=29	=29	=29
!	!LO:DY:a	!	!LO:DY:a	!	!	!LO:SIC:s=4ggT	!
[>1GG	p	8Bn/L	p	16GG/	4ryyyy	(4ggT\	p
!	!	!	!	!LO:SIC:v:s=16gLL 16d 16Bn\	!	!	!
.	.	.	.	16gLL 16d 16B-\	.	.	.
!	!	!	!	!LO:SIC:v:s=16g 16d 16B\	!	!	!
.	.	32r	.	16g 16d 16B-\	.	.	.
!	!	!LO:SIC:s=(32dLL	!	!	!	!	!
.	.	(>32d/LL	.	.	.	.	.
!	!	!	!	!LO:SIC:v:s=16gJJ 16d 16B\	!	!	!
.	.	32e/	.	16gJJ 16d 16B-\	.	.	.
.	.	32f#X/JJJ	.	.	.	.	.
!	!	!	!	!	!	!LO:SIC:s=(>32qqff#XLLL	!
.	.	.	.	.	.	32qqff#X/LLL	.
.	.	.	.	.	.	32qqgg/	.
!	!	!	!	!	!	!LO:SIC:v:s=32qqbbn/	!
.	.	.	.	.	.	32qqbb-/	.
!	!	!	!	!	!	!LO:TX:b:t=poco a poco cres-:problem=dynamics with extention lines	!LO:HP:t=poco a poco cres-
.	.	.	.	.	.	32qqddd/JJJ	<
!	!	!	!LO:MO:mod=!LO&colon;HP&colon;b&colon;i&colon;t=[poco a poco cres]	!	!	!	!
!	!	!	!LO:MO:null:mod=!LO&colon;HP&colon;ed=brack	!	!	!	!
!	!	!	!	!	!	!	!
!	!	!LO:SIC:s=16g'LL)	!LO:MO:null:mod=<	!	!	!	!
.	.	16g/LL)	.	4G/	16G\LL	8ggg'\)	.
!	!LO:MO:mod=!LO&colon;HP&colon;b&colon;i&colon;t=poco a poco cres	!	!	!	!	!	!
!	!LO:HP:a:t=poco a poco cres	!	!	!	!LO:SIC:v:s=16g 16d 16B\	!	!
.	<	80r	.	.	16g 16d 16B-\	.	.
.	.	(80g/LL	.	.	.	.	.
.	.	80a/	.	.	.	.	.
!	!	!LO:SIC:v:s=80bn/	!	!	!	!	!
.	.	80b-/	.	.	.	.	.
.	.	80cc/JJJ	.	.	.	.	.
!	!	!LO:SIC:s=8dd'J)	!	!	!LO:SIC:v:s=16g 16d 16B\	!	!
.	.	8dd/J)	.	.	16g 16d 16B-\	8r	.
!	!	!	!	!	!LO:SIC:v:s=16gJJ 16d 16B\	!	!
.	.	.	.	.	16gJJ 16d 16B-\	.	.
!	!	!	!	!	!LO:N:vis=2	!	!
.	.	8.r	.	2G/	16G\LL	4aat\	.
.	.	.	.	.	16f#X 16d 16c\	.	.
.	.	.	.	.	16f# 16d 16c\	.	.
!	!	!LO:SIC:s=(64f#LLLL	!	!	!	!	!
.	.	64f#X/LLLL	.	.	16f#JJ 16d 16c\	.	.
.	.	64g/	.	.	.	.	.
.	.	64a/	.	.	.	.	.
!	!	!LO:SIC:v:s=64bn/JJJJ	!	!	!	!	!
.	.	64b-/JJJJ	.	.	.	.	.
.	.	.	.	.	.	(>32qqgg#X/LLL	.
.	.	.	.	.	.	32qqaa/	.
.	.	.	.	.	.	32qqccc/	.
.	.	.	.	.	.	32qqfff#X/JJJ	.
*	*	*	*	*	*tremolo	*	*
!	!	!LO:SIC:s=16cc'LL)	!	!	!	!	!
.	.	16cc\LL	.	.	16f# 16d 16c\LL	8aaa'\)	.
.	.	80r	.	.	16f# 16d 16c\	.	.
!	!	!LO:MO:mod=!null:null	!	!	!	!	!
!	!	!LO:TX:Bi:t=cres_:problem=dynamics with extention lines	!LO:HP:a:t=cres_	!	!	!	!
!	!	!	!LO:MO:mod=.	!	!	!	!
.	.	(80a\LL	<	.	.	.	.
!	!	!LO:SIC:v:s=80b\	!	!	!	!	!
.	.	80b-\	.	.	.	.	.
.	.	80cc\	.	.	.	.	.
.	.	80dd\JJJ	.	.	.	.	.
.	.	8ee'\J)	.	.	16f# 16d 16c\	8r	.
.	.	.	.	.	16f# 16d 16c\JJ	.	.
=30	=30	=30	=30	=30	=30	=30	=30
*	*	*	*	*	*	*8va	*
!	!	!	!	!	!LO:N:vis=2	!	!
1GG_>	.	8.r	.	2G/	16G\LL	4bbnt\	.
!	!	!	!	!	!LO:SIC:v:s=16fn 16d 16Bn\	!	!
.	.	.	.	.	16fn 16d 16B-\	.	.
!	!	!	!	!	!LO:SIC:v:s=16f 16d 16B\	!	!
.	.	.	.	.	16f 16d 16B-\	.	.
!	!	!	!	!	!LO:SIC:v:s=16fJJ 16d 16B\	!	!
.	.	(64g\LLLL	.	.	16fJJ 16d 16B-\	.	.
.	.	64a\	.	.	.	.	.
!	!	!LO:SIC:v:s=64b\	!	!	!	!	!
.	.	64b-\	.	.	.	.	.
.	.	64cc\JJJJ	.	.	.	.	.
.	.	.	.	.	.	(>32qqaa#X/LLL	.
.	.	.	.	.	.	32qqbb/	.
.	.	.	.	.	.	32qqddd/	.
.	.	.	.	.	.	32qqggg/JJJ	.
*	*	*	*	*	*tremolo	*	*
!	!	!LO:SIC:s=16dd'LL)	!	!	!LO:SIC:v:s=16f 16d 16B\LL	!LO:SIC:v:s=8bbb'\)	!
.	.	16dd\LL)	.	.	16f 16d 16B-\LL	8bbb-'\)	.
!	!	!	!	!	!LO:SIC:v:s=16f 16d 16B\	!	!
.	.	80r	.	.	16f 16d 16B-\	.	.
!	!	!LO:SIC:v:s=(80b\LL	!	!	!	!	!
.	.	(80b-\LL	.	.	.	.	.
.	.	80cc\	.	.	.	.	.
.	.	80dd\	.	.	.	.	.
.	.	80ee\JJJ	.	.	.	.	.
!	!	!	!	!	!LO:SIC:v:s=16f 16d 16B\	!	!
.	.	8ff'\J)	.	.	16f 16d 16B-\	8r	.
!	!	!	!	!	!LO:SIC:v:s=16f 16d 16B\JJ	!	!
.	.	.	.	.	16f 16d 16B-\JJ	.	.
!	!	!	!	!	!LO:N:vis=2	!	!
.	.	8.r	.	2G/	16G\LL	4cccT\	.
.	.	.	.	.	16e 16c\	.	.
.	.	.	.	.	16e 16c\	.	.
.	.	(48g/LLL	.	.	16eJJ 16c\	.	[
.	.	48a/	.	.	.	.	.
!	!	!LO:SIC:v:s=48b/JJJ	!	!	!	!	!
.	.	48b-/JJJ	.	.	.	.	.
!	!	!	!	!	!	!LO:SIC:s=(>32qqbbLLL	!
.	.	.	.	.	.	32qqbb/LLL	.
.	.	.	.	.	.	32qqccc/	.
.	.	.	.	.	.	32qqeee/	.
.	.	.	.	.	.	32qqggg/JJJ	.
!	!	!LO:SIC:s=16cc'LL)	!	!	!	!LO:SIC:s=8cccc')	!
.	.	16cc\LL)	.	.	16e 16c\LL	8cccc\	.
.	.	80r	.	.	16e 16c\	.	.
.	.	(80cc\LL	.	.	.	.	.
.	.	80dd\	.	.	.	.	.
.	.	80ee\	.	.	.	.	.
!	!	!	!LO:MO:mod=.	!	!	!	!
.	.	80ff\JJJ	[	.	.	.	.
!	!	!LO:SIC:s=8gg'J)	!	!	!	!	!
.	.	8gg\J)	.	.	16e 16c\	8r	.
.	.	.	.	.	16e 16c\JJ	.	.
*	*	*	*	*Xtremolo	*Xtremolo	*	*
*	*	*	*	*v	*v	*	*
=31	=31	=31	=31	=31	=31	=31
!	!	!	!	!	!	!LO:MO:mod=.
.	.	.	.	.	16qqggg/LL	f
!	!	!	!	!	!LO:SIC:v:s=16qqbbbn/	!
.	.	.	.	.	16qqbbb-/	.
.	.	.	.	.	16qqdddd/JJ	.
!	!LO:MO:null:mod=!LO&colon;DY&colon;ed=brack	!	!	!	!	!
!	!	!	!	!	!	!
!	!LO:MO:null:mod=f	!	!LO:DY:rj	!LO:SIC:v:s=4d 4Bn 4G\	!LO:N:vis=8.	!LO:DY:b=2
4GG/]	.	4f 4G/	f	4d 4B- 4G\	8ffff\L	f
.	.	.	.	.	32r	.
.	.	.	.	.	(48cccc#X\LL	.
.	.	.	.	.	48dddd\	.
.	.	.	.	.	48eeee\JJJ	.
.	.	.	.	.	16ffff'\LL)	.
4r	.	4r	.	4r	.	.
.	.	.	.	.	32r	.
!	!	!	!	!	!LO:SIC:v:s=(48bbb\L	!
.	.	.	.	.	(48bbb-\L	.
.	.	.	.	.	48ccccn\	.
.	.	.	.	.	48cccc#X\JJJ	.
.	.	.	.	.	16dddd'\LL)	.
.	.	.	.	.	32r	.
.	.	.	.	.	(48ggg\L	.
.	.	.	.	.	48aaa\	.
2r	.	2r	.	2r	.	.
.	.	.	.	.	48aaa#X\JJJ	.
!	!	!	!	!	!LO:N:vis=8.	!
!	!	!	!	!	!LO:SIC:v:s=8bbb'\L)	!
.	.	.	.	.	8bbb-'\L)	.
.	.	.	.	.	32r	.
.	.	.	.	.	(48ddd\LL	.
.	.	.	.	.	48ddd#X\	.
.	.	.	.	.	48eee\JJJ	.
.	.	.	.	.	8fff'\L)	.
.	.	.	.	.	32r	.
!	!	!	!	!	!LO:SIC:v:s=(32bb\LL	!
.	.	.	.	.	(32bb-\LL	.
.	.	.	.	.	32ccc\	.
.	.	.	.	.	32ccc#X\JJJ	.
=32	=32	=32	=32	=32	=32	=32
!	!	!	!	!	!LO:SIC:s=8dddL')	!
2r	.	1r	.	1r	8ddd\L)	.
*	*	*	*	*	*X8va	*
.	.	.	.	.	32r	.
.	.	.	.	.	(48dd\LL	.
.	.	.	.	.	48dd#X\	.
.	.	.	.	.	48ee\JJJ	.
.	.	.	.	.	16ff'\LL)	.
.	.	.	.	.	32r	.
!	!	!	!	!	!LO:SIC:v:s=(48bn\L	!
.	.	.	.	.	(48b-\L	.
.	.	.	.	.	48cc\	.
.	.	.	.	.	48cc#X\JJJ	.
!	!	!	!	!	!LO:SIC:v:s=16dd'/LL)	!
.	.	.	.	.	16dd#/LL)	.
.	.	.	.	.	40r	.
!	!	!	!	!	!LO:SIC:s=(80f#LL	!
.	.	.	.	.	(>80f#X/LL	.
.	.	.	.	.	80g/	.
.	.	.	.	.	80a/JJJJ	.
!	!	!	!	!	!LO:SIC:s=8g')	!
8.r	.	.	.	.	8g/)	.
.	.	.	.	.	8r	.
(64f\LLLL	>	.	.	.	.	.
64e\	.	.	.	.	.	.
64d\	.	.	.	.	.	.
64c\JJJJ	]	.	.	.	.	.
!LO:SIC:v:s=16Bn'\LL)	!	!	!	!	!	!
(16B-'\LL)	.	.	.	.	4r	.
!LO:N:vis=32	!	!	!	!	!	!
!LO:SIC:s=(64dLL	!	!	!	!	!	!
64d\LL	.	.	.	.	.	.
!LO:N:vis=32	!	!	!	!	!	!
64c\	.	.	.	.	.	.
!LO:N:vis=32	!	!	!	!	!	!
!LO:SIC:v:s=64B\	!	!	!	!	!	!
64B-\	.	.	.	.	.	.
!LO:N:vis=32	!	!	!	!	!	!
!LO:SIC:s=64AJJJJ	!	!	!	!	!	!
64A\JJJJ)	.	.	.	.	.	.
!LO:SIC:s=16G'LL)	!	!	!	!	!	!
16G'\LL	.	.	.	.	.	.
!LO:N:vis=32	!	!	!	!	!	!
(64G\LL	.	.	.	.	.	.
!LO:N:vis=32	!	!	!	!	!	!
64F\	.	.	.	.	.	.
!LO:N:vis=32	!	!	!	!	!	!
64E\	.	.	.	.	.	.
!LO:N:vis=32	!	!	!	!	!	!
!LO:SIC:s=64DJJJJ	!	!	!	!	!	!
64D\JJJJ)	.	.	.	.	.	.
!!LO:PB:g=original
=33	=33	=33	=33	=33	=33	=33
*	*	*	*	*^	*	*
!LO:SIC:s=4C)	!	!	!	!	!	!	!
4C/	.	(4gg\	.	16E/LL	2C\	4gT/	.
.	.	.	.	16G/	.	.	.
.	.	.	.	16c/	.	.	.
.	.	.	.	16G/JJ	.	.	.
.	.	.	.	.	.	16qqf#X/LL	.
.	.	.	.	.	.	16qqg/	.
.	.	.	.	.	.	16qqcc/	.
.	.	.	.	.	.	16qqee/JJ	.
*	*	*	*	*rep	*	*	*
4r	.	4ccc\)	.	16E/LL	.	16gg\LL	.
.	.	.	.	16G/	.	96r	.
.	.	.	.	.	.	(96ee\LL	.
.	.	.	.	.	.	96ff\	.
.	.	.	.	.	.	96gg\	.
.	.	.	.	.	.	96aa\	.
.	.	.	.	.	.	96bbn\JJJJ	.
.	.	.	.	16c/	.	16ccc'\LL)	.
.	.	.	.	16G/JJ	.	96r	.
*	*	*	*	*Xrep	*	*	*
.	.	.	.	.	.	(96gg\LL	.
.	.	.	.	.	.	96aa\	.
.	.	.	.	.	.	96bb\	.
.	.	.	.	.	.	96ccc\	.
.	.	.	.	.	.	96ddd\JJJJ	.
!	!	!	!	!	!	!LO:N:vis=8	!
!	!	!	!	!	!	!LO:SIC:s=16eee'LL)	!
2r	.	(2ccT\	.	16E/LL	2C\	16eee\LL)	.
.	.	.	.	16G/	.	40r	.
*	*	*	*	*	*	*8va	*
.	.	.	.	.	.	(40ccc\L	.
.	.	.	.	.	.	40ddd\	.
.	.	.	.	16c/	.	.	.
.	.	.	.	.	.	40eee\	.
.	.	.	.	.	.	40fff\JJJ	.
.	.	.	.	16G/JJ	.	16ggg'\LL)	.
.	.	.	.	16GLL 16E/	.	80r	.
.	.	.	.	.	.	(80eee\LL	.
.	.	.	.	.	.	80fff\	.
.	.	.	.	.	.	80ggg\	.
.	.	.	.	.	.	80aaa\	.
.	.	.	.	16G/	.	64bbb\JJJJ	.
!	!	!	!	!	!	!LO:SIC:s=16cccc'LL)	!
.	.	.	.	.	.	16cccc\LL)	.
.	.	.	.	16c/	.	.	.
.	.	.	.	.	.	64r	.
.	.	.	.	.	.	(64ggg\LL	.
.	.	.	.	.	.	64aaa\	.
.	.	.	.	16G/JJ	.	64bbb\	.
.	.	.	.	.	.	64cccc\	.
.	.	.	.	.	.	64dddd\	.
.	.	.	.	.	.	64eeee\JJJJ	.
.	.	16qqbn/LL	.	.	.	.	.
.	.	16qqcc/JJ)	.	.	.	.	.
=34	=34	=34	=34	=34	=34	=34	=34
!	!	!	!	!	!	!LO:SIC:s=([8ffffL)	!
(4d\	.	4g/	.	16F/LL	2BBn\	[8ffff\L)	.
.	.	.	.	16G/	.	.	.
!	!	!	!	!	!	!LO:MO:mod=*null:null	!
*	*	*	*	*	*	*tuplet	*
!	!	!	!	!	!	!LO:TUP:a	!
!	!	!	!	!	!	!LO:SIC:s=48ffffLL]	!
.	.	.	.	16d/	.	(48ffff\LL]	.
.	.	.	.	.	.	48eeee\	.
.	.	.	.	.	.	48eeee-X\	.
.	.	.	.	16G/JJ	.	48dddd\	.
.	.	.	.	.	.	48dddd-X\	.
.	.	.	.	.	.	48cccc\JJJ)	.
*	*	*	*	*rep	*	*	*
!	!	!	!	!	!	!LO:N:vis=8	!
!	!	!	!	!	!	!LO:SIC:s=([16bbbnLL	!
4g\)	.	4r	.	16F/LL	.	[16bbbn\LL	.
!	!	!	!	!	!	!LO:TUP:a	!
!	!	!	!	!	!	!LO:SIC:s=48bbbL]	!
.	.	.	.	16G/	.	(48bbb\L]	.
.	.	.	.	.	.	48bbb-X\	.
.	.	.	.	.	.	48aaa\	.
.	.	.	.	16d/	.	48aaa-X\	.
.	.	.	.	.	.	48ggg\	.
.	.	.	.	.	.	48ggg-X\	.
.	.	.	.	16G/JJ	.	48fff\	.
.	.	.	.	.	.	48eee\	.
.	.	.	.	.	.	48eee-X\JJJ)	.
*	*	*	*	*Xrep	*	*X8va	*
!	!	!	!	!	!	!LO:TX:a:t=loco	!
(2GT\	.	2r	.	16F/LL	2BB\	16dddn\LL	.
.	.	.	.	16G/	.	64eee-\LL	.
.	.	.	.	.	.	64ddd\	.
.	.	.	.	.	.	64ccc#X\	.
.	.	.	.	.	.	64cccn\JJJJ	.
!	!	!	!	!	!	!LO:SIC:s=16.bbn\LL	!
.	.	.	.	16d/	.	16.bbny\LL	.
.	.	.	.	16G/JJ	.	.	.
*	*	*	*	*	*	*Xtuplet	*
.	.	.	.	.	.	96bb-\LL	.
.	.	.	.	.	.	96aan\	.
.	.	.	.	.	.	96aa-X\JJJJ	.
!	!	!	!	!	!	!LO:MO:mod=*null:null	!
*	*	*	*	*	*	*tuplet	*
!	!	!	!	!	!	!LO:TUP:a	!
.	.	.	.	16F/LL	.	(60ggny\LLL	.
.	.	.	.	.	.	60gg-X\	.
.	.	.	.	.	.	60ff\	.
.	.	.	.	.	.	60eeny\	.
.	.	.	.	16G/	.	.	.
.	.	.	.	.	.	60ee-X\	.
.	.	.	.	.	.	60dd\	.
.	.	.	.	.	.	60dd-X\	.
.	.	.	.	.	.	60ccn\	.
.	.	.	.	16d/	.	.	.
!	!	!	!	!	!	!LO:SIC:v:s=60bn\	!
.	.	.	.	.	.	60b-\	.
.	.	.	.	.	.	60b-X\	.
.	.	.	.	.	.	60a\	.
.	.	.	.	.	.	60a-X\	.
.	.	.	.	16G/JJ	.	.	.
.	.	.	.	.	.	60g\	.
.	.	.	.	.	.	60g-X\	.
.	.	.	.	.	.	60f\JJJ)	.
16qqF#X/LL	.	.	.	.	.	.	.
16qqG/JJ)	.	.	.	.	.	.	.
=35	=35	=35	=35	=35	=35	=35	=35
4C/	.	(4gg\	.	16E/LL	2C\	8e/L	.
.	.	.	.	16G/	.	.	.
*	*	*	*	*	*	*Xtuplet	*
.	.	.	.	16c/	.	48r	.
!	!	!	!	!	!	!LO:SIC:s=(48gLL	!
.	.	.	.	.	.	48g/LL	.
.	.	.	.	.	.	48a/	.
!	!	!	!	!	!	!LO:TX:b:t=P:problem=♮ below	!
.	.	.	.	16G/JJ	.	48bn/	.
.	.	.	.	.	.	48cc/	.
.	.	.	.	.	.	48dd/JJJ	.
*	*	*	*	*rep	*	*	*
!	!	!	!	!	!	!LO:SIC:s=16ee'LL)	!
4r	.	4ccc\)	.	16E/LL	.	16ee\LL	.
.	.	.	.	16G/	.	80r	.
.	.	.	.	.	.	(80cc\LL	.
.	.	.	.	.	.	80dd\	.
.	.	.	.	.	.	80ee\	.
.	.	.	.	.	.	80ff\JJJJ	.
!	!	!	!	!	!	!LO:N:vis=8	!
!	!	!	!	!	!	!LO:SIC:s=16gg'LL)	!
.	.	.	.	16c/	.	16gg'\LL	.
.	.	.	.	16G/JJ	.	96r	.
*	*	*	*	*Xrep	*	*	*
!	!	!	!	!	!	!LO:SIC:s=(96eeLL	!
.	.	.	.	.	.	(96ee\LL)	.
.	.	.	.	.	.	96ff\	.
.	.	.	.	.	.	96gg\	.
.	.	.	.	.	.	96aa\	.
.	.	.	.	.	.	96bb-\JJJJ	.
!	!	!	!	!	!	!LO:SIC:s=8ccc'L)	!
2r	.	(4ccTT\	.	16E/LL	2C\	8ccc\L)	.
.	.	.	.	16G/	.	.	.
!	!	!	!	!	!	!LO:N:vis=40	!
.	.	.	.	16c/	.	80r	.
*	*	*	*	*	*	*8va	*
.	.	.	.	.	.	(80ccc\LLL	.
.	.	.	.	.	.	80ddd\	.
.	.	.	.	.	.	80eee\	.
.	.	.	.	.	.	80fff\JJJJ	.
.	.	.	.	16G/JJ	.	16ggg'\LL)	.
*	*	*	*	*rep	*	*	*
.	.	8ddTT\L	.	16E/LL	.	80r	.
.	.	.	.	.	.	(80eee\LL	.
.	.	.	.	.	.	80fff\	.
.	.	.	.	.	.	80ggg\	.
.	.	.	.	.	.	80aaa\	.
.	.	.	.	16G/	.	64bbb-\JJJJ	.
.	.	.	.	.	.	16cccc'\LL)	.
.	.	8ee\J)	.	16c/	.	.	.
.	.	.	.	.	.	64r	.
.	.	.	.	.	.	(64ggg\LL	.
.	.	.	.	.	.	64aaa\	.
.	.	.	.	16G/JJ	.	64bbb-\	.
*	*	*	*	*Xrep	*	*	*
.	.	.	.	.	.	64cccc\	.
.	.	.	.	.	.	64dddd\	.
.	.	.	.	.	.	64eeee\JJJJ	.
!!LO:PB:g=original
=36	=36	=36	=36	=36	=36	=36	=36
!	!	!	!	!	!	!LO:SIC:s=([8ffffL)	!
(4d\	.	4dd\	.	16F/LL	2BBn\	[8ffff\L	.
.	.	.	.	16G/	.	.	.
.	.	.	.	16d/	.	64ffff\LLL]	.
!	!	!	!	!	!	!LO:TX:b:i:t=legatiſsimo	!
.	.	.	.	.	.	64dddd\	.
.	.	.	.	.	.	64cccc#X\	.
.	.	.	.	.	.	64eeee\	.
.	.	.	.	16G/JJ	.	64dddd\	.
!	!	!	!	!	!	!LO:SIC:v:s=64bbbn\	!
.	.	.	.	.	.	64bbb-\	.
.	.	.	.	.	.	64aaa#X\	.
!	!	!	!	!	!	!LO:SIC:v:s=64ccccn\JJJJ)	!
.	.	.	.	.	.	64cccc#\JJJJ)	.
*	*	*	*	*rep	*	*	*
!	!	!	!	!	!	!LO:N:vis=8	!
4g\)	.	4r	.	16F/LL	.	([8bbbn\L	.
.	.	.	.	16G/	.	.	.
.	.	.	.	16d/	.	64bbb\LLL]	.
.	.	.	.	.	.	64ggg\	.
.	.	.	.	.	.	64fff#X\	.
!	!	!	!	!	!	!LO:SIC:v:s=64aaan\	!
.	.	.	.	.	.	64aaa#\	.
.	.	.	.	16G/JJ	.	64ggg\	.
*	*	*	*	*Xrep	*	*	*
.	.	.	.	.	.	64ddd\	.
.	.	.	.	.	.	64ccc#X\	.
.	.	.	.	.	.	64eee\JJJJ)	.
!LO:SIC:s=(2GT	!	!	!	!	!	!	!
2GT\	.	2r	.	16F/LL	2BB\	([8ddd\L	.
.	.	.	.	16G/	.	.	.
.	.	.	.	16d/	.	64ddd\LLL]	.
*	*	*	*	*	*	*X8va	*
!	!	!	!	!	!	!LO:TX:a:t=loco	!
!	!	!	!	!	!	!LO:SIC:v:s=64bbn\	!
.	.	.	.	.	.	64bb-X\	.
.	.	.	.	.	.	64aa#X\	.
!	!	!	!	!	!	!LO:SIC:v:s=64ccc\	!
.	.	.	.	.	.	64ccc#\	.
!	!	!	!	!	!	!LO:SIC:v:s=64bb\	!
.	.	.	.	16G/JJ	.	64bb-\	.
.	.	.	.	.	.	64gg\	.
.	.	.	.	.	.	64ff#\	.
!	!	!	!	!	!	!LO:SIC:v:s=64aa\JJJJ	!
.	.	.	.	.	.	64aa#\JJJJ	.
*	*	*	*	*rep	*	*	*
.	.	.	.	16F/LL	.	64gg\LLLL	.
.	.	.	.	.	.	64dd\	.
.	.	.	.	.	.	64cc#\	.
.	.	.	.	.	.	64ee\	.
.	.	.	.	16G/	.	64dd\	.
!	!	!	!	!	!	!LO:SIC:v:s=64b\	!
.	.	.	.	.	.	64b-\	.
.	.	.	.	.	.	64a#X\	.
!	!	!	!	!	!	!LO:SIC:v:s=64ccn\	!
.	.	.	.	.	.	64cc#\	.
!	!	!	!	!	!	!LO:SIC:v:s=64b\	!
.	.	.	.	16d/	.	64b-\	.
.	.	.	.	.	.	64g\	.
.	.	.	.	.	.	64f#X\	.
!	!	!	!	!	!	!LO:SIC:v:s=64a\	!
.	.	.	.	.	.	64a#\	.
.	.	.	.	16G/JJ	.	64g\	.
*	*	*	*	*Xrep	*	*	*
.	.	.	.	.	.	64d\	.
.	.	.	.	.	.	64g\	.
.	.	.	.	.	.	64fn\JJJJ)	.
16qqF#X/LL	.	.	.	.	.	.	.
!LO:SIC:s=16qqGJJ)	!	!	!	!	!	!	!
16qqG/JJ	.	.	.	.	.	.	.
=37	=37	=37	=37	=37	=37	=37	=37
!	!	!	!	!	!	!LO:SIC:s=4e	!
4C/	.	1r	.	16E/LL	2C\	(4e/	.
.	.	.	.	16G/	.	.	.
.	.	.	.	16c/	.	.	.
.	.	.	.	16G/JJ	.	.	.
!	!	!	!	!	!	!LO:SIC:s=(32qqgLLL	!
.	.	.	.	.	.	32qqg/LLL	.
.	.	.	.	.	.	32qqcc/	.
.	.	.	.	.	.	32qqee/	.
.	.	.	.	.	.	32qqgg/	.
.	.	.	.	.	.	32qqccc/JJJ	.
*	*	*	*	*rep	*	*	*
4r	.	.	.	16E/LL	.	4eee\)	.
.	.	.	.	16G/	.	.	.
.	.	.	.	16c/	.	.	.
.	.	.	.	16G/JJ	.	.	.
*	*	*	*	*Xrep	*	*	*
.	.	.	.	.	.	(>32qqee/LLL	.
.	.	.	.	.	.	32qqff#X/	.
.	.	.	.	.	.	32qqgg#X/	.
.	.	.	.	.	.	32qqaa/JJJ	.
2r	.	.	.	16E/LL	2BBn\	4gg#yt\)	.
.	.	.	.	16G#X/	.	.	.
.	.	.	.	16d/	.	.	.
.	.	.	.	16G#/JJ	.	.	.
.	.	.	.	.	.	(>32qqff#/LLL	.
.	.	.	.	.	.	32qqgg#/	.
.	.	.	.	.	.	32qqaa/	.
!	!	!	!	!	!	!LO:SIC:v:s=32qqbbn/JJJ	!
.	.	.	.	.	.	32qqbb-/JJJ	.
*	*	*	*	*rep	*	*	*
.	.	.	.	16E/LL	.	8.ee\L)	.
.	.	.	.	16G#/	.	.	.
.	.	.	.	16d/	.	.	.
.	.	.	.	16G#/JJ	.	16ee\Jk	.
*	*	*	*	*Xrep	*	*	*
=38	=38	=38	=38	=38	=38	=38	=38
!	!	!	!	!	!	!LO:SIC:s=4eet	!
1ryy	.	1ryy	.	16C/LL	4AA\	(4eet\	.
.	.	.	.	16E/	.	.	.
.	.	.	.	16A/	.	.	.
.	.	.	.	16E/JJ	.	.	.
!	!	!	!	!	!	!LO:SIC:s=(>32qqdd#LLL	!
.	.	.	.	.	.	32qqdd#X/LLL	.
.	.	.	.	.	.	32qqee/	.
.	.	.	.	.	.	32qqff#X/	.
.	.	.	.	.	.	32qqgg#X/	.
.	.	.	.	.	.	32qqaa/	.
!	!	!	!	!	!	!LO:SIC:v:s=32qqbbn/JJJ	!
.	.	.	.	.	.	32qqbb-/JJJ	.
.	.	.	.	16C/LL	4GG\	8.ccc\L)	.
.	.	.	.	16E-X/	.	.	.
.	.	.	.	16A/	.	.	.
.	.	.	.	16E-/JJ	.	16ccc\Jk	.
.	.	.	.	16C/LL	2FF#X\	4dd#yt\	.
.	.	.	.	16D/	.	.	.
.	.	.	.	16A/	.	.	.
.	.	.	.	16D/JJ	.	.	.
!	!	!	!	!	!	!LO:SIC:s=(>32qqcc#LLL	!
.	.	.	.	.	.	32qqcc#X/LLL	.
.	.	.	.	.	.	32qqdd#/	.
.	.	.	.	.	.	32qqff#X/	.
.	.	.	.	.	.	32qqaa/JJJ	.
*	*	*	*	*rep	*	*	*
!	!	!	!	!	!	!LO:SIC:s=8.dddL)	!
.	.	.	.	16C/LL	.	8.ddd\L	.
.	.	.	.	16D/	.	.	.
.	.	.	.	16A/	.	.	.
.	.	.	.	16D/JJ	.	16ccc\Jk	.
*	*	*	*	*Xrep	*	*	*
=39	=39	=39	=39	=39	=39	=39	=39
2r	.	2r	.	4GG/	16GG\LL	8..bbnt\L	.
.	.	.	.	.	16BBn\	.	.
.	.	.	.	.	16D\	.	.
.	.	.	.	.	16G\JJ	.	.
!	!	!	!	!	!	!LO:N:vis=32	!
.	.	.	.	.	.	64aa\LLL	.
!	!	!	!	!	!	!LO:N:vis=32	!
.	.	.	.	.	.	64gg\JJJJ	.
.	.	.	.	4G/	16G\LL	4ggg\	.
.	.	.	.	.	16Bn\	.	.
.	.	.	.	.	16d\	.	.
.	.	.	.	.	16B\JJ	.	.
2F\	.	2gT/	.	16G/LL	2F\	(32gg'\LLL	.
.	.	.	.	.	.	32ff#X'\	.
.	.	.	.	16B/	.	32gg'\	.
.	.	.	.	.	.	32aa'\	.
.	.	.	.	16d/	.	32bb'\	.
.	.	.	.	.	.	32ccc'\	.
.	.	.	.	16B/JJ	.	32ddd'\	.
.	.	.	.	.	.	32eee'\JJJ	.
*	*	*	*	*	*	*8va	*
!	!	!	!	!	!	!LO:SIC:v:s=32fff'\LLL	!
.	.	.	.	16G/LL	.	32fff#'\LLL	.
.	.	.	.	.	.	32fff#X'\	.
.	.	.	.	16B/	.	32ggg'\	.
.	.	.	.	.	.	32aaa'\	.
.	.	.	.	16d/	.	32bbb'\	.
.	.	.	.	.	.	32cccc'\	.
.	.	.	.	16B/JJ	.	32dddd'\	.
!	!	!	!	!	!	!LO:SIC:v:s=[32dddd#\JJJ	!
.	.	.	.	.	.	[32ffff#X'\JJJ	.
.	.	16qqf#X/LL	.	.	.	.	.
.	.	16qqg/JJ	.	.	.	.	.
!!LO:PB:g=original
=40	=40	=40	=40	=40	=40	=40	=40
!	!	!	!	!	!	!LO:SIC:v:s=32dddd#\LLL]	!
(4E\	.	(>4g/	.	16G/LL	4E\	32ffff#\LLL]	.
.	.	.	.	.	.	32eeee\	.
.	.	.	.	16c/	.	32ddddn\	.
.	.	.	.	.	.	32cccc\	.
.	.	.	.	16e/	.	32bbbn\	.
.	.	.	.	.	.	32cccc\	.
.	.	.	.	16c/JJ	.	32dddd\	.
.	.	.	.	.	.	32cccc\JJJ	.
4F\	.	4a/	.	16A/LL	4F\	32bbb\LLL	.
.	.	.	.	.	.	32aaa\	.
.	.	.	.	16c/	.	32ggg#X\	.
.	.	.	.	.	.	32aaa\	.
.	.	.	.	16f/	.	32eee\	.
.	.	.	.	.	.	32fff\	.
.	.	.	.	16d/JJ	.	32aa\	.
.	.	.	.	.	.	32ddd\JJJ	.
*	*	*	*	*	*	*X8va	*
!	!	!	!	!	!	!LO:TX:a:t=loco	!
4G\	.	4e/	.	16c/LL	2G\	16cccT\LL	.
.	.	.	.	16e/	.	32bb\L	.
.	.	.	.	.	.	32aa\	.
.	.	.	.	16g/	.	32ggny\	.
.	.	.	.	.	.	32ff#X\	.
.	.	.	.	16e/JJ	.	32aa\	.
.	.	.	.	.	.	32gg\JJJ	.
!	!	!	!	!LO:SIC:v:s=16Bn/LL	!	!	!
4GG/)	.	4d/)	.	16B-/LL	.	32ffn\LLL	.
.	.	.	.	.	.	32ee\	.
.	.	.	.	16d/	.	32dd\	.
.	.	.	.	.	.	32cc\	.
.	.	.	.	16f/	.	32bny\	.
.	.	.	.	.	.	32aa\	.
.	.	.	.	16d/JJ	.	32gg\	.
.	.	.	.	.	.	32ff\JJJ)	.
*	*	*	*	*v	*v	*	*
=41	=41	=41	=41	=41	=41	=41
!	!LO:MO:null:mod=!LO&colon;DY&colon;ed=brack	!	!	!	!	!
!	!	!	!	!	!	!
!	!LO:MO:null:mod=f	!	!	!LO:TX:t=P:problem=mixed beam	!	!
4GG#X/	.	4e/	f	8GG#X/L	8ee\L	.
!	!	!	!	!LO:SIC:s=[8g#J [8e 8Bn [8G#X	!	!
.	.	.	.	[8g#yJ [8e 8Bn [8G#X\	[8eeeJ [8bbn [8ee\	fp
!	!	!	!	!LO:TX:t=P:problem=mixed beam	!	!
4r	.	4r	.	32g#]LLL 32e] 32B 32G#\]	32eee]LLL 32bb] 32ee\]	.
*	*	*	*	*clefG2	*	*
!	!	!	!	!	!LO:S:s=2:note:problem=note-level slur	!
.	.	.	.	(32g#X/	(32ddd (>32bb [32ee^<\	.
.	.	.	.	32a/)	32ccc) 32aa) 32ee\]	.
!	!	!	!	!	!LO:S:s=2:note:problem=note-level slur	!
.	.	.	.	(32G#/JJJ	(32ddJJJ (>32bny [32e\	.
.	.	.	.	32A/LLL)	32ccLLL) 32a) 32e^<\]	.
!	!	!	!	!	!LO:S:s=2:note:problem=note-level slur	!
.	.	.	.	(32g#/	(32ddd (>32bb [32ee\	.
.	.	.	.	32a/)	32ccc) 32aa) 32ee^<\]	.
!	!	!	!	!	!LO:S:s=2:note:problem=note-level slur	!
.	.	.	.	(32G#/JJJ	(32ddJJJ (>32b [32e\	.
2r	.	2r	.	8A/)	8ccL) 8a) 8e/]	.
*	*	*	*	*clefF4	*	*
!	!	!	!	!LO:N:vis=4	!	!
.	.	.	.	[8Gny [8GnyG/	[8cc#XJ [>8a [8e/	fz
.	.	.	.	16G]KL 16GG]	16cc#]KL 16a] 16e/]	.
.	.	.	.	8F 8FF/	8dd 8a 8d/	.
.	.	.	.	16C#XJk 16CC#X/	16eeJk 16a/	.
=42	=42	=42	=42	=42	=42	=42
*	*	*	*	*	*^	*^
!	!	!	!	!	!	!LO:TX:a:t=P:problem=w tym takcie oznaczenia trioli i crescenda nie wyświetlają się	!	!
2r	.	2r	.	8.D 8.DD/	8gg/L	4dd 4a\	.	.
.	.	.	.	.	16ff/Jk	.	.	.
.	.	.	.	32r	32r	.	.	.
!	!	!	!	!	!LO:MO:mod=*null:null	!	!	!
*	*	*	*	*Xtuplet	*tuplet	*	*	*
!	!	!	!	!LO:MO:mod=*null:null	!LO:MO:mod=*null:null	!	!	!
*	*	*	*	*rscale:2	*rscale:2	*	*	*
!	!	!	!	!LO:SIC:s=(96AALLLL	!LO:TUP:a:problem=klamra łukowa	!	!	!LO:DY:b=2
!	!	!	!	!	!	!	!LO:MO:null:mod=f <	!LO:MO:mod=.
.	.	.	.	96AA/LLLL	(<96A/LLL	.	.	f
!	!	!	!	!	!	!	!LO:MO:mod=.	!LO:HP:b=2
!	!	!	!	!	!	!	!	!LO:MO:mod=.
.	.	.	.	96BB-/	96B-/	.	<	<
.	.	.	.	96C#X/JJJJ	96c#X/JJJ	.	.	.
*	*	*	*	*rscale:1	*rscale:1	*	*	*
!	!	!	!	!LO:SIC:s=16D'LL)	!	!	!	!LO:MO:mod=.
.	.	.	.	16D\LL	16d'</LL)	2.ryyyy	[	[
*	*	*	*	*	*tuplet	*	*	*
!	!	!	!	!LO:SIC:s=(32qqALLL	!	!	!	!LO:HP:b=2
!	!	!	!	!	!	!	!	!LO:MO:mod=.
.	.	.	.	32qqA/LLL	(32qqa/LLL	.	<	<
!	!	!	!	!	!LO:TUP:b:problem=oznaczenie trioli, klamra łukowa	!	!	!
.	.	.	.	32qqB-/	32qqb-/	.	.	.
.	.	.	.	32qqc#X/JJJ	32qqcc#X/JJJ	.	.	.
!	!	!	!	!LO:SIC:s=16d'JJ)	!LO:SIC:s=16dd'JJ)	!	!	!LO:MO:mod=.
.	.	.	.	16d\JJ	16dd/JJ)	.	[	[
*	*	*	*	*tuplet	*	*	*	*
*	*	*	*	*clefG2	*	*	*	*
!	!	!	!	!LO:TUP:a:problem=oznaczenie trioli, klamra łukowa	!	!	!	!LO:HP:b=2
!	!	!	!	!LO:SIC:s=(16qqaLL	!	!	!	!LO:MO:mod=.
.	.	.	.	16qqa/LL	(>32qqaa/LLL	.	<	<
.	.	.	.	16qqb-/	32qqbb-/	.	.	.
.	.	.	.	16qqcc#X/JJ	32qqccc#X/JJJ	.	.	.
!	!	!	!	!LO:SIC:s=8dd')	!LO:SIC:s=8ddd')	!	!	!LO:MO:mod=.
.	.	.	.	8dd\	8ddd\)	.	[	[
*	*	*tuplet	*	*	*	*	*	*
.	.	(16qqA/LL	p	.	.	.	.	.
.	.	16qqB-/	.	.	.	.	.	.
.	.	16qqc#X/JJ	.	.	.	.	.	.
!	!	!LO:SIC:s=8d')	!	!	!	!	!	!
4r	.	8d/)	.	2r	2r	.	.	.
.	.	8r	.	.	.	.	.	.
(>16qqAA/LL	p	.	.	.	.	.	.	.
16qqBB-/	.	.	.	.	.	.	.	.
16qqC#X/JJ	.	.	.	.	.	.	.	.
!LO:SIC:s=8D')	!	!	!	!	!	!	!	!
8D\)	.	4ryy	.	.	.	.	.	.
8r	.	.	.	.	.	.	.	.
*	*	*	*	*	*	*	*v	*v
*	*	*	*	*	*v	*v	*
*	*	*	*	*clefF4	*	*
=43	=43	=43	=43	=43	=43	=43
*	*	*	*	*^	*	*
1ryy	.	1ryy	.	4F/	16F\LL	([8dd\L	.
.	.	.	.	.	16A\	.	.
.	.	.	.	.	16d\	32dd\LL]	.
.	.	.	.	.	.	32ee'\	.
.	.	.	.	.	16A\JJ	32dd'\	.
.	.	.	.	.	.	32cc#X'\JJJ	.
*	*	*	*	*rep	*rep	*	*
.	.	.	.	4F/	16F\LL	32dd'\LLL	.
.	.	.	.	.	.	32a'\	.
.	.	.	.	.	16A\	32bn'\	.
.	.	.	.	.	.	32cc#'\	.
.	.	.	.	.	16d\	32dd'\	.
.	.	.	.	.	.	32ee'\	.
.	.	.	.	.	16A\JJ	32ff'\	.
*	*	*	*	*Xrep	*Xrep	*	*
!	!	!	!	!	!	!LO:SIC:s=32gg'JJJ)	!
.	.	.	.	.	.	32gg'\JJJ	.
*	*	*	*	*rep	*rep	*	*
!	!	!	!	!	!	!LO:SIC:s=(32gg#XLLL	!
.	.	.	.	4F/	16F\LL	(32gg#X\LLL)	.
.	.	.	.	.	.	32aa\	.
!	!	!	!	!	!	!LO:SIC:s=32bbn	!
.	.	.	.	.	16A\	32bbny\	.
.	.	.	.	.	.	32ccc#X\	.
.	.	.	.	.	16d\	32ddd\	.
.	.	.	.	.	.	32eee\	.
*	*	*	*	*	*	*8va	*
.	.	.	.	.	16A\JJ	32fff\	.
*	*	*	*	*Xrep	*Xrep	*	*
!	!	!	!	!	!	!LO:SIC:v:s=32gggn\JJJ	!
.	.	.	.	.	.	32ggg#\JJJ	.
*	*	*	*	*rep	*rep	*	*
.	.	.	.	4F/	16F\LL	32ggg#X\LLL	.
.	.	.	.	.	.	32aaa\	.
.	.	.	.	.	16A\	32ffff\	.
.	.	.	.	.	.	32eeee\	.
.	.	.	.	.	16d\	32dddd\	.
!	!	!	!	!	!	!LO:SIC:v:s=32ccccn\	!
.	.	.	.	.	.	32cccc#\	.
!	!	!	!	!	!	!LO:SIC:s=32bbbn	!
.	.	.	.	.	16A\JJ	32bbbny\	.
*	*	*	*	*Xrep	*Xrep	*	*
.	.	.	.	.	.	32aaa\JJJ)	.
!!LO:PB:g=original
=44	=44	=44	=44	=44	=44	=44	=44
1r	.	1r	.	16G/LL	4G\	8ggg\L	.
.	.	.	.	16c/	.	.	.
.	.	.	.	16e/	.	[8eeee\J	.
.	.	.	.	16c/JJ	.	.	.
*	*	*	*	*clefG2	*	*	*
.	.	.	.	16c/LL	4G\	64eeee\LLLL]	.
.	.	.	.	.	.	64bbbn\	.
.	.	.	.	.	.	64cccc\	.
.	.	.	.	.	.	64fff#X\	.
.	.	.	.	16e/	.	64ggg\	.
.	.	.	.	.	.	64ddd#X\	.
.	.	.	.	.	.	64eee\	.
.	.	.	.	.	.	64bbny\	.
.	.	.	.	16g/	.	64ccc\	.
*	*	*	*	*	*	*X8va	*
!	!	!	!	!	!	!LO:TX:a:t=loco	!
.	.	.	.	.	.	64ff#X\	.
.	.	.	.	.	.	64gg\	.
.	.	.	.	.	.	64dd#\	.
.	.	.	.	16e/JJ	.	64ee\	.
.	.	.	.	.	.	64cc\	.
.	.	.	.	.	.	64ffn\	.
.	.	.	.	.	.	64ee\JJJJ	.
!	!	!	!	!LO:SIC:v:s=16Bn/LL	!	!LO:SIC:v:s=(2ddT\	!
.	.	.	.	16c/LL	2G\	(2dd#t\	.
.	.	.	.	16d/	.	.	.
.	.	.	.	16f/	.	.	.
.	.	.	.	16d/JJ	.	.	.
.	.	.	.	16Bn/LL	.	.	.
.	.	.	.	16d/	.	.	.
.	.	.	.	16f/	.	.	.
.	.	.	.	16B/JJ	.	.	.
!	!	!	!	!	!	!LO:SIC:v:s=16qqccLL	!
.	.	.	.	.	.	16qqcc#X/LL	.
!	!	!	!	!	!	!LO:SIC:v:s=16qqdd/	!
.	.	.	.	.	.	16qqdd#/	.
.	.	.	.	.	.	16qqee/	.
!	!	!	!	!	!	!LO:SIC:v:s=16qqdd/JJ	!
.	.	.	.	.	.	16qqdd#/JJ	.
=45	=45	=45	=45	=45	=45	=45	=45
1r	.	4r	.	4e/	4c\	4cc\)	.
.	.	(4gg\	p	4r	4ryy	4r	.
!	!	!LO:SIC:s=8ccc')	!	!	!	!	!
.	.	8ccc\)	.	4r	2ryyyy	4r	.
.	.	8r	.	.	.	.	.
!	!	!	!	!LO:MO:mod=!null:null	!	!	!
!	!	!	!	!LO:CL:ed	!	!	!
*	*	*	*	*clefF4	*	*	*
!	!	!	!	!	!	!LO:SIC:s=(8aL 8d 8c'	!LO:DY:rj
.	.	4r	.	(8FL 8FF'/	.	(>8aL 8d 8c'>/	p
!	!	!	!	!	!	!LO:SIC:s=8gJ 8d 8Bn')	!
.	.	.	.	8GJ 8GG'/)	.	8gJ 8d 8Bn'>/)	.
*	*	*	*	*v	*v	*	*
=46	=46	=46	=46	=46	=46	=46
4r	.	1r	.	4C 4CC/	4g 4e 4c/	.
(4G\	p	.	.	4r	4r	.
8c'\)	.	.	.	4r	4r	.
8r	.	.	.	.	.	.
4r	.	.	.	8AAL 8AAA\	8eL 8c 8F#X</	.
.	.	.	.	8GGJ 8GGG\	8dJ 8Bn 8Fn</	.
=47	=47	=47	=47	=47	=47	=47
1r	.	2r	.	8CC\L	16cLL 16G< 16E</	.
.	.	.	.	.	16c 16G< 16E</	.
.	.	.	.	32r	16c 16G< 16E</	.
!	!	!	!	!LO:SIC:s=32GGLL	!	!
.	.	.	.	(>32GG\LL	.	.
.	.	.	.	32AA\	16cJJ 16G< 16E</	.
.	.	.	.	32BBn\JJJ	.	.
*	*	*	*	*	*tremolo	*
!	!	!	!	!LO:SIC:s=8..CTL	!	!
.	.	.	.	8..CT\L)	16cLL 16G< 16E</	.
.	.	.	.	.	16c 16G< 16E</	.
.	.	.	.	.	16c 16G< 16E</	.
.	.	.	.	.	16cJJ 16G< 16E</	.
.	.	.	.	64BB\LLL	.	.
.	.	.	.	64AA\JJJJ	.	.
.	.	(4dd\	.	8GG\	16dLL 16Bn< 16G< 16F</	.
.	.	.	.	.	16d 16B< 16G< 16F</	.
.	.	.	.	8rGG	16d 16B< 16G< 16F</	.
.	.	.	.	.	16dJJ 16B< 16G< 16F</	.
!	!	!	!	!LO:SIC:s=8..GGTL	!	!
.	.	4gg\	.	(>8..GGT>\L	16dLL 16B< 16G< 16F</	.
.	.	.	.	.	16d 16B< 16G< 16F</	.
.	.	.	.	.	16d 16B< 16G< 16F</	.
.	.	.	.	.	16dJJ 16B< 16G< 16F</	.
*	*	*	*	*Xtuplet	*	*
.	.	.	.	96FF\LLL	.	.
.	.	.	.	96EE\	.	.
.	.	.	.	96DD\JJJJ	.	.
=48	=48	=48	=48	=48	=48	=48
!	!	!	!	!LO:SIC:s=8CCL	!	!
2r	.	4ee\)	.	8CC\L)	16cLL 16G< 16E</	.
.	.	.	.	.	16c 16G< 16E</	.
.	.	.	.	32r	16c 16G< 16E</	.
.	.	.	.	32GG\LL	.	.
.	.	.	.	32AA\	16cJJ 16G< 16E</	.
.	.	.	.	32BBn\JJJ	.	.
.	.	4r	.	8..CT\L	16cLL 16G< 16E</	.
.	.	.	.	.	16c 16G< 16E</	.
.	.	.	.	.	16c 16G< 16E</	.
.	.	.	.	.	16cJJ 16G< 16E</	.
.	.	.	.	96BB\LLL	.	.
.	.	.	.	96AA\	.	.
.	.	.	.	96GG\JJJJ	.	.
*clefG2	*	*	*	*	*	*
(4dd\	.	2r	.	4AA\	16dLL 16c 16F#X</	.
.	.	.	.	.	16d 16c 16F#</	.
.	.	.	.	.	16d 16c 16F#</	.
.	.	.	.	.	16dJJ 16c 16F#</	.
*	*	*	*	*	*Xtremolo	*
4gg\	.	.	.	8..GGT>\L	16dLL 16c 16Fn</	.
.	.	.	.	.	16d 16c 16F</	.
.	.	.	.	.	16d 16Bn 16F</	.
.	.	.	.	.	16dJJ 16B 16F</	.
.	.	.	.	96FF\LLL	.	.
.	.	.	.	96EE\	.	.
.	.	.	.	96DD\JJJJ	.	.
=49	=49	=49	=49	=49	=49	=49
!	!	!	!	!	!LO:SIC:s=8c<L 8E<	!
4cc\)	.	2r	.	8CC\L	8cL 8E</	.
.	.	.	.	16.r	16.r	.
!	!	!	!	!	!	!LO:DY:b=2
.	.	.	.	64CC\LLL	64C</LLL	p
.	.	.	.	64DD\JJJJ	64D</JJJJ	.
4r	.	.	.	8..EE\L	8..E<t</L	.
.	.	.	.	64DD\LLL	64D</LLL	.
.	.	.	.	64CC\JJJJ	64C</JJJJ	.
2r	.	(4cc\	.	4C\	4c</	.
.	.	8ee\)	.	4rC	4rc<	.
.	.	8r	.	.	.	.
!!LO:PB:g=original
=50	=50	=50	=50	=50	=50	=50
!	!	!	!	!	!LO:SIC:s=8c<L 8G< 8E<	!
2r	.	1r	.	8CC\L	(8c<L 8G< 8E</	.
.	.	.	.	16.r	16.r<	.
!	!	!	!	!	!	!LO:DY:a
.	.	.	.	64CC\LLL	64C</LLL	<
!	!	!	!	!	!LO:SIC:s=64D</JJJJ	!
.	.	.	.	64DD\JJJJ	64D</JJJJ)	.
!	!	!	!	!	!	!LO:DY:a
.	.	.	.	8..EEt\L	8..E<t</L	[ >
.	.	.	.	64DD\LLL	64D</LLL	.
.	.	.	.	64CC\JJJJ	64C</JJJJ	.
(4ee\	>	.	.	4C\	4c<'/	]
8gg\)	]	.	.	4r	4ryy	.
8r	.	.	.	.	.	.
=51	=51	=51	=51	=51	=51	=51
1r	.	2r	.	8CC\L	8c<L 8G< 8E</	.
!	!	!	!	!	!LO:N:vis=16	!
!	!	!	!	!	!LO:MO:mod=16r	!
.	.	.	.	16r	16.r<	.
!	!	!	!	!	!	!LO:MO:mod=!null:null
!	!	!	!	!	!LO:MO:null:mod=32C</LLL	!LO:HP:b=2
.	.	.	.	32CC\LL	.	<
!	!	!	!	!	!LO:MO:mod=32D</JJJJ	!
.	.	.	.	32DD\JJJ	64C</LLL	.
!	!	!	!	!	!LO:MO:mod=.	!
.	.	.	.	.	64D</JJJJ	.
!	!	!	!	!	!	!LO:MO:mod=!null:null
!	!	!	!	!	!	!LO:HP:b=2
.	.	.	.	8..EE\L	8..E<t</L	[ >
.	.	.	.	64DD\LLL	64D</LLL	.
!	!	!	!	!	!	!LO:MO:mod=.
.	.	.	.	64CC\JJJJ	64C</JJJJ	]
!	!	!	!	!	!	!LO:MO:null:mod=]
.	.	(4gg\	<	4C\	4c</	.
!	!	!LO:SIC:s=[4bb-)	!	!	!	!
.	.	[4bb-\	[	4r	4ryy	.
=52	=52	=52	=52	=52	=52	=52
!	!	!	!	!	!	!LO:DY:b=2
1r	.	4bb-\_	ff	4.C 4.CC\	4.c< 4.B-< 4.G< 4.E</	ff
!	!	!LO:SIC:s=8bb-L]	!	!	!	!
.	.	&(8bb-\L]	.	.	.	.
!	!	!	!	!	!LO:SIC:s=8r<	!
.	.	16r	.	8r	8r	.
!	!	!LO:SIC:s=(64bb-LLL	!	!	!	!
.	.	64bb-\LLL)	.	.	.	.
.	.	64aa\	.	.	.	.
.	.	64gg\	.	.	.	.
.	.	64ff\JJJJ&)	.	.	.	.
!	!	!	!LO:MO:mod=!LO&colon;HP&colon;t=dim	!	!	!
!	!	!LO:SIC:s=8ee'L)	!LO:HP:t=dim&colon;	!	!	!
.	.	8ee\L	>	2rC	2rB<	.
.	.	16r	.	.	.	.
.	.	(64gg\LLL	.	.	.	.
.	.	64ff\	.	.	.	.
.	.	64ee\	.	.	.	.
.	.	64dd\JJJJ	.	.	.	.
.	.	8cc'/L)	.	.	.	.
.	.	16r	.	.	.	.
.	.	(64cc/LLL	.	.	.	.
.	.	64b-X/	.	.	.	.
.	.	64a/	.	.	.	.
.	.	64g/JJJJ	.	.	.	.
=53	=53	=53	=53	=53	=53	=53
!	!	!	!	!	!	!LO:DY:b=2
(4cc\	p	4f/)	p	4FF 4FFF\	4c< 4A< 4F</	p
4ff\)	.	4r	.	4rAA	4rB<	.
(>4f/	.	2r	.	4rAA	8r<	.
.	.	.	.	.	(8D</L	.
4gT/)	.	.	.	4BB- 4BBB-\	8E</	.
.	.	.	.	.	8D</J)	.
=54	=54	=54	=54	=54	=54	=54
!	!	!	!	!	!LO:SIC:s=8C#<L	!
2.a/	<	2r	.	8AAL 8AAA\	(8C#X</L	.
.	[	.	.	16rAAA	16r<	.
!	!	!	!	!LO:SIC:s=(64AALLL	!LO:SIC:s=(64A<LLL	!
.	>	.	.	64AA\LLL	64A</LLL	.
.	]	.	.	64BBn\	64Bn</	.
.	.	.	.	64C#X\	64c#X</	.
.	.	.	.	64D\JJJJ	64d</JJJJ	.
!	!	!	!	!LO:N:vis=8	!LO:SIC:s=16e'LL)	!
!	!	!	!	!LO:SIC:s=16E'LL)	!	!
.	.	.	.	16E'\LL	16e/LL)	.
*	*	*	*	*	*Xtuplet	*
!	!	!	!	!LO:N:vis=20	!LO:N:vis=20	!
!	!	!	!	!	!LO:SIC:s=80r	!
.	.	.	.	80r	(80r	.
!	!	!	!	!LO:SIC:s=(80ALL	!LO:SIC:s=(80aLL	!
.	.	.	.	80A\LL	80a/LL	.
!	!	!	!	!LO:SIC:s=80Bn\	!	!
.	.	.	.	80Bny\	80bn/	.
!	!	!	!	!LO:SIC:s=80c#X\	!	!
.	.	.	.	80c#y\	80cc#X/	.
.	.	.	.	80d\JJJJ	80dd/JJJJ	.
!	!	!	!	!LO:TX:t=P:problem=mixed beam	!	!
!	!	!	!	!LO:SIC:s=16e'LL)	!	!
.	.	.	.	16e'>\LL	16ee'\LL)	.
*	*	*	*	*clefG2	*	*
!	!	!	!	!LO:MO:mod=80r	!LO:N:vis=20	!
.	.	.	.	(64a/LL	80r	.
!	!	!	!	!LO:MO:null:mod=(80aLL	!LO:TUP:a:problem=klamra łukowa	!
.	.	.	.	.	(80aa\LL	.
!	!	!	!	!LO:MO:mod=.	!	!
.	.	.	.	64bny/	.	.
!	!	!	!	!LO:MO:null:mod=80bn	!LO:SIC:s=80bbn\	!
.	.	.	.	.	80bbny\	.
!	!	!	!	!LO:MO:mod=.	!	!
.	.	.	.	64cc#y/	.	.
!	!	!	!	!LO:MO:null:mod=80cc#	!LO:SIC:s=80ccc#X\	!
.	.	.	.	.	80ccc#y\	.
!	!	!	!	!LO:MO:mod=.	!	!
.	.	.	.	64dd/JJJJ	.	.
!	!	!	!	!LO:MO:null:mod=80ddJJJJ	!	!
.	.	.	.	.	80ddd\JJJJ	.
.	.	4r	.	4ee'\)	4eee'\)	.
*	*	*tuplet	*	*	*	*
!	!	!LO:TX:b:t=P:problem=nie wyświetla się oznaczenie trioli	!	!	!	!
!	!	!LO:SIC:s=(16qqeLL	!	!	!	!
.	.	(>16qqe/LL	.	.	.	.
!	!	!LO:TUP:b:problem=klamra łukowa	!	!	!	!
.	.	16qqf#X/	.	.	.	.
.	.	16qqg#X/JJ	.	.	.	.
4r	.	8a'/)	.	4r	4r	.
.	.	8r	.	.	.	.
*clefF4	*	*	*	*	*	*
=55	=55	=55	=55	=55	=55	=55
2r	.	(4cc\	.	1r	1r	.
!	!	!LO:SIC:v:s=4ff\)	!	!	!	!
.	.	4ee\)	.	.	.	.
8r	.	(>4f/	.	.	.	.
(8D'/L	.	.	.	.	.	.
8BB-'/	.	4gT/	.	.	.	.
8C'/J	.	.	.	.	.	.
!	!	!	!	!LO:MO:mod=!null:null	!	!
!	!	!	!	!LO:CL:ed	!	!
*	*	*	*	*clefF4	*	*
=56	=56	=56	=56	=56	=56	=56
*	*	*	*	*^	*	*
4FF/)	.	4a/)	.	16F 16FF/	2ryyyy	(4ccc 4cc\	.
.	.	.	.	16cLL 16A 16F\	.	.	.
.	.	.	.	16c 16A 16F\	.	.	.
.	.	.	.	16cJJ 16A 16F\	.	.	.
*	*	*	*	*tremolo	*	*	*
4r	.	4r	.	16cLL 16A 16F\	.	4fff 4ff\)	.
.	.	.	.	16c 16A 16F\	.	.	.
.	.	.	.	16c 16A 16F\	.	.	.
.	.	.	.	16cJJ 16A 16F\	.	.	.
*	*	*	*	*Xtremolo	*	*	*
2r	.	2r	.	4D/	16D\LL	(4ff 4f\	.
.	.	.	.	.	16d 16A 16F\	.	.
.	.	.	.	.	16d 16A 16F\	.	.
.	.	.	.	.	16dJJ 16A 16F\	.	.
.	.	.	.	4BBn/	16BBn\LL	4gg 4gT\)	.
.	.	.	.	.	16d 16G 16F\	.	.
.	.	.	.	.	16d 16G 16F\	.	.
.	.	.	.	.	16dJJ 16G 16F\	.	.
.	.	.	.	.	.	16qqff/LL	.
.	.	.	.	.	.	16qqgg/JJ	.
!!LO:PB:g=original
=57	=57	=57	=57	=57	=57	=57	=57
!	!	!	!	!	!LO:N:vis=2	!	!
1ryy	.	1ryy	.	2C/	16C\LL	([8aaL [8a\	.
.	.	.	.	.	16c 16A 16F\	.	<
.	.	.	.	.	16c 16A 16F\	32aa]LL 32a\]	.
.	.	.	.	.	.	32bb-\	.
.	.	.	.	.	16cJJ 16A 16F\	32ccc\	.
.	.	.	.	.	.	32ddd\JJJ)	.
*	*	*	*	*	*tremolo	*8va	*
!	!	!	!	!	!	!	!LO:MO:mod=.
.	.	.	.	.	16cLL 16A 16F\	(32ccc\LLL	[
.	.	.	.	.	.	32ddd\	.
.	.	.	.	.	16c 16A 16F\	32eee\	.
.	.	.	.	.	.	32fff\)	.
.	.	.	.	.	16c 16A 16F\	(32eee\	.
.	.	.	.	.	.	32fff\	.
.	.	.	.	.	16cJJ 16A 16F\	32ggg\	.
!	!	!	!	!	!	!	!LO:MO:null:mod=[
.	.	.	.	.	.	32aaa\JJJ)	.
!	!	!	!	!	!LO:N:vis=2	!	!
.	.	.	.	2C/	16C\LL	([8cccc\L	f
.	.	.	.	.	16c 16B- 16G\	.	.
.	.	.	.	.	16c 16B- 16G\	32cccc\LL]	>
.	.	.	.	.	.	32bbb-\	.
.	.	.	.	.	16cJJ 16B- 16G\	32ggg\	.
.	.	.	.	.	.	32eee\JJJ	.
*	*	*	*	*	*	*X8va	*
!	!	!	!	!	!	!LO:TX:a:t=loco	!
.	.	.	.	.	16cLL 16B- 16G\	32ccc\LLL	.
.	.	.	.	.	.	32bb-\	.
!	!	!	!	!	!	!	!LO:MO:mod=.
.	.	.	.	.	16c 16B- 16G\	32gg\	]
.	.	.	.	.	.	32ee\	.
.	.	.	.	.	16c 16B- 16G\	32cc\	.
.	.	.	.	.	.	32b-\	.
.	.	.	.	.	16cJJ 16B- 16G\	32g\	.
!	!	!	!	!	!	!	!LO:MO:null:mod=]
.	.	.	.	.	.	32a\JJJ)	.
*	*	*	*	*	*Xtremolo	*	*
*	*	*	*	*v	*v	*	*
=58	=58	=58	=58	=58	=58	=58
2r	.	1ryy	.	4FF/	16f/LL	.
.	.	.	.	.	16f 16c 16A/	.
.	.	.	.	.	16f 16c 16A/	.
.	.	.	.	.	16fJJ 16c 16A/	.
*	*	*	*	*	*tremolo	*
.	.	.	.	4AA/	(>16fLL 16c 16A/	.
.	.	.	.	.	16f 16c 16A/	.
.	.	.	.	.	16f 16c 16A/	.
.	.	.	.	.	16fJJ 16c 16A/	.
*clefG2	*	*	*	*	*	*
!	!	!	!	!	!LO:TX:a:t=........:mod=	!
(4ee\	.	.	.	2CC#Xt/	16g'>LL 16e 16A/	.
.	.	.	.	.	16g'> 16e 16A/	.
.	.	.	.	.	16g'> 16e 16A/	.
.	.	.	.	.	16g'> 16e 16A/	.
!LO:SIC:v:s=4aa\)	!	!	!	!	!	!
4bb-\)	.	.	.	.	16g'> 16e 16A/	.
.	.	.	.	.	16g'> 16e 16A/	.
.	.	.	.	.	16g'> 16e 16A/	.
.	.	.	.	.	16g'>JJ 16e 16A/)	.
.	.	.	.	16qqBBBn/LL	.	.
.	.	.	.	16qqCC#/JJ	.	.
=59	=59	=59	=59	=59	=59	=59
4a/	.	1ryy	.	4DD/	16fLL 16A/	.
.	.	.	.	.	16f 16e 16A/	.
.	.	.	.	.	16f 16d 16A/	.
.	.	.	.	.	16fJJ 16c#X 16A/	.
4r	.	.	.	4FF/	(>16fLL 16d 16A/	.
.	.	.	.	.	16f 16d 16A/	.
.	.	.	.	.	16f 16d 16A/	.
.	.	.	.	.	16fJJ 16d 16A/	.
!	!	!	!	!	!LO:TX:a:t=........:mod=	!
(4dd\	.	.	.	2BBBnt/	16f'>LL 16d 16G/	.
.	.	.	.	.	16f'> 16d 16G/	.
.	.	.	.	.	16f'> 16d 16G/	.
.	.	.	.	.	16f'> 16d 16G/	.
4gg\)	.	.	.	.	16f'> 16d 16G/	.
.	.	.	.	.	16f'> 16d 16G/	.
.	.	.	.	.	16f'> 16d 16G/	.
.	.	.	.	.	16f'>JJ 16d 16G/)	.
.	.	.	.	16qqAAA/LL	.	.
.	.	.	.	16qqBBB/JJ	.	.
=60	=60	=60	=60	=60	=60	=60
!	!	!	!	!LO:SIC:s=(4CC	!	!
4g/	.	[2ee-X\	<	(>4CC/	16e-XLL 16d 16G/	.
!	!	!	!LO:MO:mod=.	!	!	!
.	.	.	[	.	16e- 16d 16G/	.
.	.	.	.	.	16e- 16c 16G/	.
.	.	.	.	.	16e-JJ 16Bn 16G/	.
4r	.	.	.	4EE-X/)	16e-LL 16c 16G/	.
.	.	.	.	.	16e- 16c 16G/	.
!	!	!	!LO:MO:mod=.	!	!	!
.	.	.	>	.	16e- 16c 16G/	.
!	!	!	!LO:MO:null:mod=[	!	!	!
.	.	.	.	.	16e-JJ 16c 16G/	.
!	!	!	!LO:MO:null:mod=>	!	!	!
2r	.	(4ee-X\]	.	4AA-X/	16e-LL 16c 16A-X/	.
.	.	.	.	.	16e- 16c 16A-/	.
.	.	.	.	.	16e- 16c 16A-/	.
.	.	.	.	.	16e-JJ 16c 16A-/	.
.	.	4aa-X\)	]	4r	16e-LL 16c 16A-/	.
.	.	.	.	.	16e- 16c 16A-/	.
.	.	.	.	.	16e- 16c 16A-/	.
.	.	.	.	.	16e-JJ 16c 16A-/	.
=61	=61	=61	=61	=61	=61	=61
!	!	!LO:SIC:s=4b-	!	!	!	!
1r	.	4b-X\	.	8DD-X\L	16fLL 16B-X< 16A-X</	.
.	.	.	.	.	16f 16B-< 16A-</	.
.	.	.	.	16r	16f 16B-< 16A-</	.
.	.	.	.	32BBB-\LL	16fJJ 16B-< 16A-</	.
.	.	.	.	32CC\JJJ	.	.
!	!	!	!	!LO:TX:a:t=P:problem=tryl bez znaków	!	!
.	.	(4ff\	.	4DD-t>\	16fLL 16B-< 16A-</	.
.	.	.	.	.	16f 16B-< 16A-</	.
.	.	.	.	.	16f 16B-< 16A-</	.
.	.	.	.	.	16fJJ 16B-< 16A-</	.
.	.	.	.	16qqCC/LL	.	.
.	.	.	.	16qqDD-/JJ	.	.
.	.	4ee-X\	.	2EE-X\	16e-XLL 16B-< 16A-</	.
.	.	.	.	.	16e- 16B-< 16A-</	.
.	.	.	.	.	16e- 16B-< 16A-</	.
.	.	.	.	.	16e-JJ 16B-< 16A-</	.
!	!	!	!	!	!LO:SIC:v:s=16e-LL 16B- 16G</	!
.	.	4dd-X\	.	.	16fLL 16B-< 16G</	.
!	!	!	!	!	!LO:SIC:v:s=16e- 16B- 16G</	!
.	.	.	.	.	16f 16B-< 16G</	.
!	!	!	!	!	!LO:SIC:v:s=16e- 16B- 16G</	!
.	.	.	.	.	16f 16B-< 16G</	.
!	!	!	!	!	!LO:SIC:v:s=16e-JJ 16B- 16G</	!
.	.	.	.	.	16fJJ 16B-< 16G</	.
=62	=62	=62	=62	=62	=62	=62
1r	.	4cc\)	.	8FF\L	16c<LL 16A-X</	.
.	.	.	.	.	16c< 16A-</	.
.	.	.	.	16r	16c< 16A-</	.
!	!	!	!	!LO:MO:mod=*null:null	!	!
*	*	*	*	*tuplet	*	*
!	!	!	!	!LO:TUP:a:problem=klamra łukowa	!	!
.	.	.	.	48CC\LL	16c<JJ 16A-</	.
.	.	.	.	48DD\	.	.
.	.	.	.	48EE\JJJ	.	.
.	.	4r	.	4FFT>\	16c<LL 16A-</	.
.	.	.	.	.	16c< 16A-</	.
.	.	.	.	.	16c< 16A-</	.
.	.	.	.	.	16c<JJ 16A-</	.
!	!	!	!	!LO:SIC:v:s=16qqEE-/LL	!	!
.	.	.	.	16qqEE/LL	.	.
!	!	!	!	!LO:SIC:v:s=16qqDD/JJ	!	!
.	.	.	.	16qqDD-X/JJ	.	.
.	.	(4ee-X\	.	8CC\L	16e-XLL 16c< 16A-</	.
.	.	.	.	.	16e- 16c< 16A-</	.
.	.	.	.	16.r	16e- 16c< 16A-</	.
.	.	.	.	.	16e-JJ 16c< 16A-</	.
!	!	!	!	!LO:N:vis=32	!	!
.	.	.	.	64AAA\LL	.	.
!	!	!	!	!LO:N:vis=32	!	!
.	.	.	.	64BBB-\JJJ	.	.
.	.	4aa-X\)	.	4CC\	16e-LL 16c< 16A-</	.
.	.	.	.	.	16e- 16c< 16A-</	.
.	.	.	.	.	16e- 16c< 16A-</	.
.	.	.	.	.	16e-JJ 16c< 16A-</	.
.	.	.	.	16qqBBB-/LL	.	.
.	.	.	.	16qqCC/JJ	.	.
!!LO:PB:g=original
=63	=63	=63	=63	=63	=63	=63
!	!	!LO:SIC:s=(4b-	!	!	!	!
1r	.	(4b-X\	.	8DD-X\L	16fLL 16B-X< 16A-X</	.
.	.	.	.	.	16f 16B-< 16A-</	.
.	.	.	.	16.r	16f 16B-< 16A-</	.
.	.	.	.	.	16fJJ 16B-< 16A-</	.
!	!	!	!	!LO:N:vis=32	!	!
.	.	.	.	64BBB-\LL	.	.
!	!	!	!	!LO:N:vis=32	!	!
.	.	.	.	64CC\JJJ	.	.
*	*	*	*	*	*rep	*
!	!	!	!	!LO:TX:a:t=P:problem=tryl bez znaków	!	!
.	.	4ff\	.	4DD-t>\	16fLL 16B-< 16A-</	.
.	.	.	.	.	16f 16B-< 16A-</	.
.	.	.	.	.	16f 16B-< 16A-</	.
.	.	.	.	.	16fJJ 16B-< 16A-</	.
*	*	*	*	*	*Xrep	*
.	.	.	.	16qqCC/LL	.	.
.	.	.	.	16qqDD-/JJ	.	.
.	.	4ee-X\	.	2EE-X\	16e-XLL 16B-< 16A-</	.
.	.	.	.	.	16e- 16B-< 16A-</	.
.	.	.	.	.	16e- 16B-< 16A-</	.
.	.	.	.	.	16e-JJ 16B-< 16A-</	.
.	.	4g/)	.	.	16d-XLL 16B-< 16G</	.
.	.	.	.	.	16d- 16B-< 16G</	.
.	.	.	.	.	16d- 16B-< 16G</	.
.	.	.	.	.	16d-JJ 16B-< 16G</	.
=64	=64	=64	=64	=64	=64	=64
!	!	!	!	!LO:SIC:s=8AA-X\L	!LO:SIC:v:s=8c< 8A-</	!
4ee-X\	.	4a-X/	.	8AA-X/L	8c< 8A</	.
.	.	.	.	16r	16r	.
*	*	*	*	*Xtuplet	*clefF4	*
!	!	!	!	!LO:SIC:s=48EE-X\LL	!LO:TX:a:t=P:problem=bemol na początku taktu	!
.	.	.	.	48EE-X/LL	48E-X\LLL	.
!	!	!	!	!LO:SIC:s=48FF\	!	!
.	.	.	.	48FF/	48F\	.
!	!	!	!	!LO:SIC:s=48GG\JJJ	!	!
.	.	.	.	48GG/JJJ	48G\JJJ	.
!	!	!	!	!LO:SIC:s=8..AA-t\L	!LO:SIC:v:s=8..A-t\L	!
4aa-X\	.	4r	.	8..AA-t/L	8..At\L	.
!	!	!	!	!LO:N:vis=32	!	!
!	!	!	!	!LO:SIC:s=64GG\LLL	!	!
.	.	.	.	64GG/LLL	64G\LLL	.
!	!	!	!	!LO:N:vis=32	!	!
!	!	!	!	!LO:SIC:s=64FF\JJJJ	!	!
.	.	.	.	64FF/JJJJ	64F\JJJJ	.
!	!	!	!	!LO:TX:t=8va:mod=	!	!
[2cc\	.	4gg\	.	8EEn\Lyy	8En\L	.
.	.	.	.	16.ryy	16.r	.
!	!	!	!	!LO:N:vis=32	!LO:N:vis=32	!
.	.	.	.	64CC\LLLyy	64C\LLL	.
!	!	!	!	!LO:N:vis=32	!LO:N:vis=32	!
.	.	.	.	64DD\JJJJyy	64D\JJJJ	.
!	!	!LO:TX:a:t=P:problem=brak początku ligatury	!	!	!	!
.	.	[4bb-\	.	4EEt>\yy	4Et\	.
.	.	.	.	16qqDD/LLyy	16qqD/LL	.
.	.	.	.	16qqEE/JJyy	16qqE/JJ	.
!!LO:PB:g=original
=65	=65	=65	=65	=65	=65	=65
!	!	!	!	!LO:TX:a:t=8va:mod=	!	!
4cc\]	.	4bb-\]	.	8FF\Lyy	8F\L	.
.	.	.	.	16.ryy	16.r	.
!	!	!	!	!LO:MO:mod=*null:null	!LO:MO:mod=*null:null	!
*	*	*	*	*tuplet	*tuplet	*
!	!	!	!	!LO:TUP:a:problem=klamra łukowa	!LO:TUP:a:problem=klamra łukowa	!
.	.	.	.	96CC\LLLyy	96C\LLL	.
.	.	.	.	96DD\yy	96D\	.
.	.	.	.	96EEn\JJJJyy	96En\JJJJ	.
2ff\	.	[2.aa-X\	.	8..FFT\Lyy	8..FT\L	.
.	.	.	.	32EE-X\Jkkyy	32E-X\Jkk	.
.	.	.	.	8DD\Lyy	8D\L	.
.	.	.	.	16.ryy	16.r	.
.	.	.	.	64BBB-\LLLyy	64BB-\LLL	.
.	.	.	.	64CC\JJJJyy	64C\JJJJ	.
[4b-\	.	.	.	4DDt\yy	4Dt\	.
.	.	.	.	16qqCC/LLyy	16qqC/LL	.
.	.	.	.	16qqDD/JJyy	16qqD/JJ	.
=66	=66	=66	=66	=66	=66	=66
2b-\]	.	4aa-\]	.	8EE-X/Lyy	8E-X/L	.
.	.	.	.	16.ryy	16.r	.
*	*	*	*	*Xtuplet	*Xtuplet	*
!	!	!	!	!LO:SIC:s=96BBB-/LLL	!LO:SIC:s=96BB-/LLL	!
.	.	.	.	96BBB-X/LLLyy	96BB-X/LLL	.
.	.	.	.	96CC/yy	96C/	.
.	.	.	.	96DD/JJJJyy	96D/JJJJ	.
.	.	(2gg\	.	4EE-T/yy	4E-T/	.
.	.	.	.	16qqDD/LLyy	16qqD/LL	.
.	.	.	.	16qqEE-/JJyy	16qqE-/JJ	.
!	!	!	!	!LO:SIC:s=(8DD/L	!LO:SIC:s=(8D/L	!
(2bn\	.	.	.	(yy>8DD/Lyy	(>8D/L	.
.	.	.	.	16ryy	16r	.
.	.	.	.	64DD/LLLyy	64D/LLL	.
.	.	.	.	64CC/yy	64C/	.
.	.	.	.	64BBBn/yy	64BBn/	.
.	.	.	.	64AAA/JJJJ)yy	64AA/JJJJ)	.
.	.	[4ff\	.	4GGGT/yy	4GGT/	.
.	.	.	.	16qqFFF#X/LLyy	16qqFF#X/LL	.
.	.	.	.	16qqGGG/JJyy	16qqGG/JJ	.
=67	=67	=67	=67	=67	=67	=67
!LO:MO:mod=(1cc)	!	!	!	!	!	!
(2cc\)	.	4ff\])	.	8CC/Lyy	8C/L	.
.	.	.	.	16.ryy	16.r	.
.	.	.	.	96GGG/LLLyy	96GG/LLL	.
.	.	.	.	96AAA/yy	96AA/	.
.	.	.	.	96BBBn/JJJJyy	96BBn/JJJJ	.
.	.	(2ee-X\	.	4CCT/yy	4CT/	.
.	.	.	.	16qqBBB/LLyy	16qqBB/LL	.
.	.	.	.	16qqCC/JJyy	16qqC/JJ	.
!LO:MO:mod=.	!	!	!	!	!	!
2ryyyy	.	.	.	8AAA-X/Lyy	8AA-X/L	.
.	.	.	.	16.ryy	16.r	.
!	!	!	!	!LO:TUP:a:problem=klamra łukowa	!LO:TUP:a:problem=klamra łukowa	!
!	!	!	!	!LO:SIC:v:s=96EE-/LLLyy	!LO:SIC:v:s=96E-/LLL	!
.	.	.	.	96EE/LLLyy	96E/LLL	.
.	.	.	.	96FF/yy	96F/	.
.	.	.	.	96GG/JJJJyy	96G/JJJJ	.
!	!	!LO:TX:b:t=ges:mod=	!	!LO:SIC:v:s=4AA-t\yy	!LO:SIC:v:s=4A-t\	!
.	.	4gg-X\	.	4AAt\yy	4At\	.
.	.	.	.	16qqGG/LLyy	16qqG/LL	.
.	.	.	.	16qqAA/JJyy	16qqA/JJ	.
=68	=68	=68	=68	=68	=68	=68
8dd-X\)	.	8ff\)	.	4DD-X/	4D-X\	.
8r	.	8r	.	.	.	.
(2ff\	f >	4r	.	4r	4r	.
!	!LO:MO:mod=.	!	!	!LO:SIC:s=4r	!	!
.	]	[>2a-X/	f >	(>4r	4r	.
*	*	*	*	*	*clefG2	*
!	!LO:MO:null:mod=]	!	!LO:MO:mod=.	!	!	!
4bn\)	.	.	]	8FL 8FF/	4dn/	>]
!	!	!	!LO:MO:null:mod=]	!LO:SIC:s=8F-XJ 8FF-X/	!	!
.	.	.	.	8F-XJ 8FF-X/)	.	.
=69	=69	=69	=69	=69	=69	=69
(2cc\	.	2a-SSS/]	.	1E-X 1EE-X	2e-X/	.
.	.	.	.	.	16qqF</LL	.
.	.	.	.	.	16qqG</	.
.	.	.	.	.	16qqA-X</JJ	.
!	!	!	!	!	!LO:TX:a:t=P:problem=tryl bez znaków	!
2dd-X\)	.	4.cc/	.	.	2G<^<t</	.
.	.	8b-/	.	.	.	.
.	.	.	.	.	16qqF</LL	.
.	.	.	.	.	16qqG</JJ	.
=70	=70	=70	=70	=70	=70	=70
4cc\	.	8a-X/	.	4AA-X 4AAA-X\	4A-X</	.
.	.	8r	.	.	.	.
4r	.	2aa-X\	f >	4r	4ryy	.
[2aa-X\	f >	.	]	4r	4ryy	.
!	!	!	!	!	!	!LO:HP:b=2
.	]	[>4f^/	.	(>8DL 8DD\	4Bn</	>
.	.	.	.	8D-XJ 8DD-X\)	.	]
=71	=71	=71	=71	=71	=71	=71
4aa-\]	.	(>2.f/]	.	1C 1CC	2c</	.
16gg\LL	.	.	.	.	.	.
!	!	!	!	!	!	!LO:HP:b=2
!	!	!	!	!	!	!LO:MO:mod=.
16aa-X\	.	.	.	.	.	<
!LO:SIC:s=16bb-	!	!	!	!	!	!
16bb-X\	.	.	.	.	.	.
!	!	!	!LO:HP:a	!	!	!
!	!	!	!LO:MO:mod=.	!	!	!
16aa-\JJ	.	.	<	.	.	.
!	!LO:MO:mod=!LO&colon;HP&colon;ed=brack	!	!	!	!	!
!	!null	!	!	!	!	!
!	!LO:MO:null:mod=<	!	!LO:MO:null:mod=<	!	!	!LO:MO:null:mod=<
2ggt\	.	.	.	.	2B-<T</	.
!	!	!	!LO:MO:mod=.	!	!	!LO:MO:mod=.
.	.	4en/)	[	.	.	[
16qqff/LL	.	.	.	.	16qqA-X</LL	.
!	!LO:MO:null:mod=[	!	!LO:MO:null:mod=[	!	!	!LO:MO:null:mod=[
16qqgg/JJ	.	.	.	.	16qqB-</JJ	.
=72	=72	=72	=72	=72	=72	=72
!	!LO:DY:a	!	!LO:DY:a	!LO:SIC:s=(<8BBnL 8BBBn\	!	!LO:MO:null:mod=f
4aa-X\	f	4f/	f	(>8BBnL 8BBBny\	(>8dnL 8A-X< 8F</	.
!	!	!	!	!LO:N:vis=16.	!LO:N:vis=16.	!
.	.	.	.	16r	16r<	.
!	!	!	!	!	!	!LO:MO:mod=.
.	.	.	.	64BB\LLL	64Bn/LLL	f
.	.	.	.	64C\	64c/	.
.	.	.	.	64D\	64d/	.
.	.	.	.	64E-X\JJJJ	64e-X/JJJJ	.
!	!	!	!	!LO:N:vis=8	!LO:N:vis=8	!
!	!	!	!	!LO:SIC:s=16F'>LL)	!LO:SIC:s=16f'LL)	!
4r	.	4r	.	(>16F'>\LL)	(>16f'/LL)	.
!	!	!	!	!LO:N:vis=40	!	!
.	.	.	.	80r	80r	.
!	!	!	!	!LO:TUP:a:problem=klamra łukowa	!LO:TUP:a:problem=klamra łukowa	!
!	!	!	!	!LO:SIC:s=(80Bn\LL	!LO:SIC:s=(80bn/LL	!
.	.	.	.	80Bny\LL	80bny/LL	.
.	.	.	.	80c\	80cc/	.
.	.	.	.	80d\	80dd/	.
.	.	.	.	80e-X\JJJJ	80ee-X/JJJJ	.
!	!	!	!	!LO:N:vis=8	!LO:N:vis=8	!
.	.	.	.	16f'>\LL)	16ff'\LL)	.
*	*	*	*	*clefG2	*	*
!	!	!	!	!LO:N:vis=40	!	!
.	.	.	.	80r	80r	.
!	!	!	!	!LO:TUP:a:problem=klamra łukowa	!LO:TUP:a:problem=klamra łukowa	!
!	!	!	!	!LO:SIC:s=(>80bn\LL	!LO:SIC:s=(>80bbn\LL	!
.	.	.	.	(>80bny\LL	(>80bbny\LL	.
.	.	.	.	80cc\	80ccc\	.
.	.	.	.	80dd\	80ddd\	.
!	!	!	!	!LO:SIC:s=80ee-\JJJJ	!LO:SIC:s=80eee-\JJJJ	!
.	.	.	.	80ee-y\JJJJ	80eee-y\JJJJ	.
2r	.	(4ddd\	.	4ff'>\)	4fff'\)	.
.	.	8eee\L	.	4r	4r	.
.	.	8fff\J)	.	.	.	.
!!LO:PB:g=original
=73	=73	=73	=73	=73	=73	=73
*	*	*	*	*clefF4	*	*
1r	.	([4fff\	.	4C 4CC/	8r	.
.	.	.	.	.	8fL 8c 8A/	.
.	.	16fff\LL]	.	4r	8f 8c 8A/	.
.	.	16ccc\	.	.	.	.
.	.	16aa\	.	.	8fJ 8c 8A/	.
.	.	16ddd\JJ)	.	.	.	.
.	.	([4ccc\	.	4C 4CC/	8r	.
.	.	.	.	.	8gL 8c 8B-/	.
.	.	16ccc\LL]	.	4ryy	8g 8c 8B-/	.
.	.	16bb-\	.	.	.	.
.	.	16dd\	.	.	8gJ 8c 8B-/	.
.	.	16ee\JJ)	.	.	.	.
*	*	*	*	*	*Xtremolo	*
=74	=74	=74	=74	=74	=74	=74
*	*	*	*	*^	*	*
(4cc\	.	4ff\	.	16AA/LL	2FF\	8fL 8c 8A/	.
!LO:MO:mod=!LO&colon;TX&colon;b&colon;i&colon;t=dolce	!	!	!	!	!	!	!
!LO:TX:b:i:t=dol.	!	!	!	!	!	!	!
.	.	.	.	16C/	.	.	.
.	.	.	.	16F/	.	16r	.
!	!	!	!	!	!	!LO:SIC:s=(<64f/LLL	!
.	.	.	.	16C/JJ	.	64f/LLL	.
.	.	.	.	.	.	64g/	.
.	.	.	.	.	.	64a/	.
.	.	.	.	.	.	64b-/JJJJ	.
*	*	*	*	*rep	*	*	*
!	!	!	!	!	!	!LO:SIC:s=8cc'\L)	!
4ff\)	.	4r	.	16AA/LL	.	8cc\L	.
.	.	.	.	16C/	.	.	.
.	.	.	.	16F/	.	16r	.
.	.	.	.	16C/JJ	.	(80cc\LLL	.
*	*	*	*	*Xrep	*	*	*
.	.	.	.	.	.	80dd\	.
.	.	.	.	.	.	80ee\	.
.	.	.	.	.	.	80ff\	.
!	!	!	!	!	!	!LO:SIC:s=80gg\JJJJ	!
.	.	.	.	.	.	80gg\JJJJ)	.
*	*	*	*	*rep	*rep	*	*
!	!	!	!	!	!	!LO:SIC:s=16aa'\LL)	!
2fT/	.	2r	.	16AA/LL	2FF\	16aa\LL	.
.	.	.	.	16C/	.	80r	.
!	!	!	!	!	!	!LO:SIC:s=(80ff\LL	!
.	.	.	.	.	.	80ff\LL	.
.	.	.	.	.	.	80gg\	.
.	.	.	.	.	.	80aa\	.
.	.	.	.	.	.	80bb-\JJJJ	.
!	!	!	!	!	!	!LO:SIC:s=16ccc'\LL)	!
.	.	.	.	16F/	.	16ccc\LL	.
.	.	.	.	16C/JJ	.	96r	.
*	*	*	*	*Xrep	*Xrep	*8va	*
.	.	.	.	.	.	(96aa\LL	.
.	.	.	.	.	.	96bb-\	.
.	.	.	.	.	.	96ccc\	.
.	.	.	.	.	.	96ddd\	.
.	.	.	.	.	.	96eee\JJJJ	.
*	*	*	*	*rep	*	*	*
!	!	!	!	!	!	!LO:SIC:s=16fff\LL')	!
.	.	.	.	16AA/LL	.	16fff\LL)	.
.	.	.	.	16C/	.	96r	.
!	!	!	!	!	!	!LO:SIC:s=(96ccc\LL	!
.	.	.	.	.	.	96ccc\LL	.
.	.	.	.	.	.	96ddd\	.
.	.	.	.	.	.	96eee\	.
.	.	.	.	.	.	96fff\	.
.	.	.	.	.	.	96ggg\JJJJ	.
!	!	!	!	!	!	!LO:SIC:s=16aaa'\LL)	!
.	.	.	.	16F/	.	16aaa\LL	.
.	.	.	.	16C/JJ	.	80r	.
*	*	*	*	*Xrep	*	*	*
!	!	!	!	!	!	!LO:SIC:s=(80fff\LL	!
.	.	.	.	.	.	80fff\LL	.
.	.	.	.	.	.	80ggg\	.
.	.	.	.	.	.	80aaa\	.
.	.	.	.	.	.	80bbb-\JJJJ	.
16qqe/LL	.	.	.	.	.	.	.
16qqf/JJ	.	.	.	.	.	.	.
=75	=75	=75	=75	=75	=75	=75	=75
!	!	!LO:MO:mod=!LO&colon;TX&colon;b&colon;i&colon;t=dolce	!	!	!	!	!
!	!	!LO:TX:b:t=dol.	!	!	!	!LO:SIC:s=([8cccc\L)	!
4g/	.	(4gg\	.	16BB-/LL	1EE	([8cccc\L	.
.	.	.	.	16C/	.	.	.
.	.	.	.	16G/	.	80cccc\LLL]	.
.	.	.	.	.	.	80bbbn\	.
.	.	.	.	.	.	80bbb-X\	.
.	.	.	.	.	.	80aaa\	.
.	.	.	.	.	.	80aaa-X\JJJJ	.
.	.	.	.	16C/JJ	.	([8ggg\L)	.
4r	.	4ccc\)	.	16BB-/LL	.	.	.
.	.	.	.	16C/	.	64ggg\LLL]	.
.	.	.	.	.	.	64ggg-X\	.
.	.	.	.	.	.	64fff\	.
.	.	.	.	.	.	64eee\	.
.	.	.	.	16G/	.	64eee-X\	.
.	.	.	.	.	.	64ddd\	.
.	.	.	.	.	.	64ddd-X\	.
.	.	.	.	.	.	64ccc\	.
.	.	.	.	16C/JJ	.	64bbn\	.
.	.	.	.	.	.	64bb-X\	.
.	.	.	.	.	.	64aa\	.
.	.	.	.	.	.	64aa-X\JJJJ	.
*	*	*	*	*	*	*X8va	*
!	!	!	!	!	!	!LO:TX:a:t=loco	!
!	!	!	!	!	!	!LO:SIC:s=(24ggn\LL	!
2r	.	2ccT\	.	16BB-/LL	.	(&(24ggn\LL)	.
.	.	.	.	.	.	48r	.
!	!	!	!	!	!	!LO:SIC:s=&(48gg-\L	!
.	.	.	.	16C/	.	48gg-X\L	.
.	.	.	.	.	.	48ff\	.
!	!	!	!	!	!	!LO:SIC:s=48ee\JJJ	!
.	.	.	.	.	.	48eeny\JJJ&)	.
!	!	!	!	!	!	!LO:SIC:s=24ee-\LL&)	!
.	.	.	.	16G/	.	&(24ee-X\LL	.
.	.	.	.	.	.	48r	.
!	!	!	!	!	!	!LO:SIC:s=&(48dd\L	!
.	.	.	.	16C/JJ	.	48ddny\L	.
!	!	!	!	!	!	!LO:SIC:s=48dd-\	!
.	.	.	.	.	.	48dd-X\&)	.
.	.	.	.	.	.	48cc\JJJ	.
!	!	!	!	!	!	!LO:MO:mod=*null:null	!
*	*	*	*	*	*	*tuplet	*
!	!	!	!	!	!	!LO:TX:a:t=P:problem=tuplet 15 zamiast 14	!
!	!	!	!	!	!	!LO:SIC:s=56bn/LLL&)	!
.	.	.	.	16BB-/LL	.	56bn/LLL	.
.	.	.	.	.	.	56b-X/	.
.	.	.	.	.	.	56any/	.
.	.	.	.	.	.	56a-X/	.
.	.	.	.	16C/	.	.	.
.	.	.	.	.	.	56g/	.
.	.	.	.	.	.	56g-X/	.
.	.	.	.	.	.	56f/	.
.	.	.	.	16G/	.	56e/	.
.	.	.	.	.	.	56e-X/	.
.	.	.	.	.	.	56d/	.
.	.	.	.	.	.	56d-X/	.
.	.	.	.	16C/JJ	.	.	.
.	.	.	.	.	.	56c/	.
.	.	.	.	.	.	56B-/	.
.	.	.	.	.	.	56B-X/JJJ	.
.	.	16qqbn/LL	.	.	.	.	.
.	.	16qqcc/JJ	.	.	.	.	.
=76	=76	=76	=76	=76	=76	=76	=76
!	!	!LO:SIC:v:s=4ff\	!	!	!	!	!
(4cc\	.	4ee\	.	16AA/LL	1FF	8A/L)	.
.	.	.	.	16C/	.	.	.
.	.	.	.	16F/	.	16r	.
*	*	*	*	*	*	*Xtuplet	*
.	.	.	.	16C/JJ	.	(80a/LLL	.
.	.	.	.	.	.	80b-/	.
.	.	.	.	.	.	80cc/	.
.	.	.	.	.	.	80dd/	.
.	.	.	.	.	.	80ee/JJJJ	.
4ff\)	.	4r	.	16AA/LL	.	8ff'\L)	.
.	.	.	.	16C/	.	.	.
.	.	.	.	16F/	.	16r	.
.	.	.	.	16C/JJ	.	(80cc\LLL	.
.	.	.	.	.	.	80dd\	.
.	.	.	.	.	.	80ee\	.
.	.	.	.	.	.	80ff\	.
.	.	.	.	.	.	80gg\JJJJ	.
(>4fT/	.	2r	.	16AA/LL	.	16aa'\LL)	.
.	.	.	.	16C/	.	80r	.
.	.	.	.	.	.	(80ff\LL	.
.	.	.	.	.	.	80gg\	.
.	.	.	.	.	.	80aa\	.
.	.	.	.	.	.	80bb-\JJJJ	.
.	.	.	.	16F/	.	16ccc'\LL)	.
.	.	.	.	16C/JJ	.	96r	.
*	*	*	*	*	*	*8va	*
.	.	.	.	.	.	(96aa\LL	.
.	.	.	.	.	.	96bb-\	.
.	.	.	.	.	.	96ccc\	.
.	.	.	.	.	.	96ddd\	.
.	.	.	.	.	.	96eee\JJJJ	.
8g/L	.	.	.	16AA/LL	.	16fff'\LL)	.
.	.	.	.	16C/	.	96r	.
.	.	.	.	.	.	(96ccc\LL	.
.	.	.	.	.	.	96ddd\	.
.	.	.	.	.	.	96eee\	.
.	.	.	.	.	.	96fff\	.
.	.	.	.	.	.	96ggg\JJJJ	.
8a/J)	.	.	.	16F/	.	16aaa'\LL)	.
.	.	.	.	16C/JJ	.	64r	.
.	.	.	.	.	.	(64fff'\LL	.
.	.	.	.	.	.	64ggg'\	.
.	.	.	.	.	.	64aaa'\JJJJ	.
!!LO:PB:g=original
=77	=77	=77	=77	=77	=77	=77	=77
4g/	.	(4gg\	.	16BB-/LL	1EE	[8bbb-\L	.
.	.	.	.	16C/	.	.	.
.	.	.	.	16G/	.	64bbb-\LLL]	.
.	.	.	.	.	.	64ggg\	.
.	.	.	.	.	.	64fff#X\	.
.	.	.	.	.	.	64aaa\	.
.	.	.	.	16C/JJ	.	64ggg\	.
.	.	.	.	.	.	64eee\	.
.	.	.	.	.	.	64ddd#X\	.
.	.	.	.	.	.	64fffn\JJJJ)	.
4r	.	4ccc\)	.	16BB-/LL	.	([8eee\L	.
.	.	.	.	16C/	.	.	.
.	.	.	.	16G/	.	64eee\LLL]	.
.	.	.	.	.	.	64ccc\	.
.	.	.	.	.	.	64bbn\	.
!	!	!	!	!	!	!LO:SIC:v:s=64ddd\	!
.	.	.	.	.	.	64ddd#\	.
*	*	*	*	*	*	*X8va	*
!	!	!	!	!	!	!LO:TX:a:t=loco	!
.	.	.	.	16C/JJ	.	64ccc\	.
.	.	.	.	.	.	64gg\	.
.	.	.	.	.	.	64ff#X\	.
.	.	.	.	.	.	64aa\JJJJ)	.
!	!	!	!	!	!	!LO:SIC:s=([8gg\L	!
2r	.	(4cc\	.	16BB-/LL	.	[8gg\L	.
.	.	.	.	16C/	.	.	.
!	!	!	!	!	!	!LO:SIC:s=64gg\LLL]	!
.	.	.	.	16G/	.	(64gg\LLL]	.
.	.	.	.	.	.	64ee\	.
.	.	.	.	.	.	64dd#X\	.
.	.	.	.	.	.	64ffn\	.
.	.	.	.	16C/JJ	.	64ee\	.
.	.	.	.	.	.	64cc\	.
.	.	.	.	.	.	64bn\	.
!	!	!	!	!	!	!LO:SIC:v:s=64dd\JJJJ	!
.	.	.	.	.	.	64dd#\JJJJ	.
.	.	4gg\)	.	16BB-/LL	.	64cc/LLLL	.
.	.	.	.	.	.	64g/	.
.	.	.	.	.	.	64f#X/	.
.	.	.	.	.	.	64a/	.
.	.	.	.	16C/	.	64g/	.
.	.	.	.	.	.	64e/	.
.	.	.	.	.	.	64d#X/	.
!	!	!	!	!	!	!LO:SIC:v:s=64f/	!
.	.	.	.	.	.	64f#/	.
.	.	.	.	16G/	.	64e/	.
.	.	.	.	.	.	64c/	.
.	.	.	.	.	.	64Bn/	.
!	!	!	!	!	!	!LO:SIC:v:s=64d/	!
.	.	.	.	.	.	64d#/	.
.	.	.	.	16C/JJ	.	64c/	.
.	.	.	.	.	.	64G/	.
.	.	.	.	.	.	64c/	.
.	.	.	.	.	.	64B-X/JJJJ)	.
=78	=78	=78	=78	=78	=78	=78	=78
1r	.	4ff\	.	16AA/LL	4FF\	4A/	.
.	.	.	.	16C/	.	.	.
.	.	.	.	16F/	.	.	.
.	.	.	.	16C/JJ	.	.	.
.	.	.	.	.	.	16qqc/LL	.
.	.	.	.	.	.	16qqf/	.
.	.	.	.	.	.	16qqa/	.
.	.	.	.	.	.	16qqcc/JJ	.
.	.	4r	.	16AA/LL	4FF\	8.aa\L	.
.	.	.	.	16C/	.	.	.
.	.	.	.	16F/	.	.	.
.	.	.	.	16A/JJ	.	16aa\Jk	.
.	.	.	.	.	.	16qqa/LL	.
.	.	.	.	.	.	16qqbn/	.
.	.	.	.	.	.	16qqcc#X/	.
.	.	.	.	.	.	16qqdd/JJ	.
.	.	2r	.	16G/LL	2E\	4cc#yt\	.
.	.	.	.	16A/	.	.	.
.	.	.	.	16c#X/	.	.	.
.	.	.	.	16A/JJ	.	.	.
.	.	.	.	.	.	16qqb/LL	.
.	.	.	.	.	.	16qqcc#/	.
.	.	.	.	.	.	16qqdd/	.
.	.	.	.	.	.	16qqee/JJ	.
.	.	.	.	16G/LL	.	8.a\L	.
.	.	.	.	16A/	.	.	.
.	.	.	.	16c#/	.	.	.
.	.	.	.	16A/JJ	.	16a\Jk	.
=79	=79	=79	=79	=79	=79	=79	=79
!	!	!	!	!	!	!LO:SIC:s=4at\	!
1r	.	1r	.	16F/LL	4D\	(4at\	<
.	.	.	.	16A/	.	.	.
.	.	.	.	16d/	.	.	.
!	!	!	!	!LO:SIC:v:s=16A/JJ	!	!	!
.	.	.	.	16B-/JJ	.	.	.
!	!	!	!	!	!	!LO:SIC:s=(>16qqg#X/LL	!
.	.	.	.	.	.	16qqg#X/LL	[
.	.	.	.	.	.	16qqa/	.
.	.	.	.	.	.	16qqbn/	.
.	.	.	.	.	.	16qqcc#X/	.
.	.	.	.	.	.	16qqdd/	.
.	.	.	.	.	.	16qqee/JJ	.
.	.	.	.	16F/LL	4C\	8.ff\L)	.
.	.	.	.	16A-X/	.	.	.
.	.	.	.	16d/	.	.	.
!	!	!	!	!LO:SIC:v:s=16A-/JJ	!	!	!
.	.	.	.	16B-/JJ	.	16ff\Jk	.
.	.	.	.	16F/LL	2BBn\	4g#yt\	.
.	.	.	.	16G/	.	.	.
.	.	.	.	16d/	.	.	.
.	.	.	.	16G/JJ	.	.	.
!	!	!	!	!	!	!LO:SIC:s=(>16qqf#X/LL	!
.	.	.	.	.	.	16qqf#X/LL	.
.	.	.	.	.	.	16qqg#/	.
.	.	.	.	.	.	16qqb/	.
.	.	.	.	.	.	16qqdd/JJ	.
*	*	*	*	*rep	*	*	*
!	!	!	!	!	!	!LO:SIC:s=8.gg\L)	!
.	.	.	.	16F/LL	.	8.gg\L	.
.	.	.	.	16G/	.	.	.
.	.	.	.	16d/	.	.	.
.	.	.	.	16G/JJ	.	16ff\Jk	.
*clefF4	*	*	*	*Xrep	*	*	*
=80	=80	=80	=80	=80	=80	=80	=80
2r	.	2r	.	16E/LL	2C\	8..eet\L	.
.	.	.	.	16G/	.	.	.
.	.	.	.	16c/	.	.	.
.	.	.	.	16G/JJ	.	.	.
!	!	!	!	!	!	!LO:N:vis=32	!
.	.	.	.	.	.	64dd\LLL	.
!	!	!	!	!	!	!LO:N:vis=32	!
.	.	.	.	.	.	64cc\JJJJ	.
.	.	.	.	16E/LL	.	4ccc\	.
.	.	.	.	16G/	.	.	.
.	.	.	.	16c/	.	.	.
.	.	.	.	16G/JJ	.	.	.
.	.	.	.	.	.	16qqdd/	.
2BB-/	.	2g/	.	16E/LL	2BB-\	(32cc'\LLL	.
.	.	.	.	.	.	32bn'\	.
.	.	.	.	16G/	.	32cc'\	.
.	.	.	.	.	.	32dd'\	.
.	.	.	.	16c/	.	32ee'\	.
.	.	.	.	.	.	32ff'\	.
.	.	.	.	16G/JJ	.	32gg'\	.
.	.	.	.	.	.	32aa'\JJJ	.
.	.	.	.	16E/LL	.	32bb-'\LLL	.
.	.	.	.	.	.	32aa'\	.
.	.	.	.	16G/	.	32gg'\	.
.	.	.	.	.	.	32aa'\	.
.	.	.	.	16c/	.	32bb-'\	.
.	.	.	.	.	.	32ccc'\	.
.	.	.	.	16G/JJ	.	32ddd'\	.
.	.	.	.	.	.	32eee'\JJJ	.
!!LO:PB:g=original
=81	=81	=81	=81	=81	=81	=81	=81
(>4AA/	.	(>4f/	.	16C/LL	4AA\	32fff'\LLL)	.
.	.	.	.	.	.	(32eee\	.
.	.	.	.	16F/	.	32fff'\)	.
.	.	.	.	.	.	(32ggg\	.
.	.	.	.	16A/	.	32aaa'\)	.
.	.	.	.	.	.	(32eee\	.
.	.	.	.	16F/JJ	.	32fff'\)	.
.	.	.	.	.	.	(32ccc#X\JJJ	.
4BB-/	.	4d/	.	16D/LL	4BB-\	32ddd\LLL)	.
.	.	.	.	.	.	(32aa\	.
.	.	.	.	16F/	.	32bb-\)	.
.	.	.	.	.	.	(32ff#X\	.
.	.	.	.	16B-/	.	32gg\)	.
.	.	.	.	.	.	(32dd\	.
.	.	.	.	16F/JJ	.	32aa\)	.
.	.	.	.	.	.	((32gg\JJJ	.
!	!	!	!	!	!	!LO:SIC:v:s=16ffnt\LL)	!
2C/)	.	4c/	.	16F/LL	2C\	16ff#t\LL)	.
.	.	.	.	16A/	.	32ee\L	.
.	.	.	.	.	.	32dd\	.
.	.	.	.	16c/	.	32cc\	.
.	.	.	.	.	.	32bn\	.
.	.	.	.	16A/JJ	.	32cc\	.
.	.	.	.	.	.	32b\JJJ	<
.	.	4e/)	.	16E/LL	.	32b-X'/LLL	.
.	.	.	.	.	.	32a'/	.
.	.	.	.	16G/	.	32g'/	.
!	!	!	!	!	!	!	!LO:MO:mod=.
.	.	.	.	.	.	32f'/	[
.	.	.	.	16B-/	.	32e'/	.
.	.	.	.	.	.	32d'/	.
.	.	.	.	16G/JJ	.	32c'/	.
!	!	!	!	!	!	!	!LO:MO:null:mod=[[
.	.	.	.	.	.	32B-'/JJJ	.
*	*	*	*	*v	*v	*	*
=82	=82	=82	=82	=82	=82	=82
!	!	!	!	!	!	!LO:MO:null:mod=!LO&colon;DY&colon;ed=brack
!	!	!	!	!	!	!
!	!	!	!	!	!LO:TX:t=P:problem=mixed beam	!LO:MO:null:mod=ff
4C#X/	ff	4A/	ff	8C#XL 8CC#X\	8A/L)	.
.	.	.	.	[8c#XJ [8C#\	[8aaJ [8ee [8a\	.
4r	.	4r	.	32c#LLL] 32C#\]	32aa] 32ee] 32a\]	.
!	!	!	!	!	!LO:SIC:s=32ggLLL 32ee [32a^>/	!
.	.	.	.	(32c#\	(>32ggLLL 32ee [32a^/	.
!	!	!	!	!	!LO:SIC:s=32ff 32dd 32a/]	!
.	.	.	.	32d\)	32ff) 32dd 32a/]	.
!	!	!	!	!LO:SIC:s=(32C#JJJ	!	!
.	.	.	.	(32C#X\JJJ	32gJJJ 32e [32A^>/	.
!	!	!	!	!LO:SIC:s=32D\LLL)	!	!
.	.	.	.	32D'\LLL)	32fLLL 32d 32A/]	.
.	.	.	.	(32c#\	32gg 32ee [32a^>/	.
.	.	.	.	32d\)	32ff 32dd 32a/]	.
.	.	.	.	(32C#\JJJ	32gJJJ 32e [32A^>/	.
!	!	!	!	!	!LO:TX:t=P:problem=mixed beam	!
2r	.	2r	.	8D\L)	8fL 8d 8A/]	.
.	.	.	.	[8cnJ [8Cn\	[8ff#XJ [8dd [8a\	fz
.	.	.	.	16c]KL 16C\]	16ff#]KL 16dd] 16a\]	.
.	.	.	.	8B- 8BB-\	8gg 8dd 8g\	fz
.	.	.	.	16F#XJk 16FF#y\	16aaJk 16dd\	.
=83	=83	=83	=83	=83	=83	=83
*	*	*	*	*	*^	*
2r	.	2r	.	8.G 8.GG\	8ccc/L	4gg 4dd\	fz
.	.	.	.	.	16bb-/Jk	.	.
!	!	!	!	!	!LO:MO:mod=*null:null	!	!
*	*	*	*	*	*tuplet	*	*
!	!	!	!	!	!LO:TUP:a:problem=klamra łukowa	!	!
!	!	!	!	!LO:SIC:s=(48D\LLL	!LO:SIC:s=(48d/LLL	!	!
.	.	.	.	48D\LLL	48d/LLL	.	<
.	.	.	.	48E\	48e/	.	.
.	.	.	.	48F#X\JJJ	48f#X/JJJ	.	.
!	!	!	!	!LO:TX:t=P:problem=mixed beam	!	!	!LO:MO:mod=[
!	!	!	!	!LO:SIC:s=16G'\LL)	!LO:SIC:s=4g'/)	!	!
.	.	.	.	16G\LL	4g/	16g\LL	[ <
*	*	*	*	*clefG2	*	*	*
!	!	!	!	!LO:SIC:s=(32qqd/LL	!	!LO:SIC:s=(32qqdd/LL	!LO:MO:mod=<
.	.	.	.	32qqd/LL	.	32qqdd/LL	[
.	.	.	.	32qqe/	.	32qqee/	.
.	.	.	.	32qqf#X/JJ	.	32qqff#X/JJ	.
!	!	!	!	!LO:SIC:s=16g'/JJ)	!	!LO:SIC:s=16gg'\JJ)	!LO:MO:null:mod=[
.	.	.	.	16g/JJ	.	16gg\JJ	.
*	*	*	*	*	*	*8va	*
!	!	!	!	!LO:SIC:s=(16qqdd/LL	!	!LO:SIC:s=(32qqddd/LL	!
.	.	.	.	(>16qqdd/LL	.	32qqddd/LL	<
.	.	.	.	16qqee/	.	32qqeee/	.
!	!	!	!	!LO:SIC:s=16qqff#JJ	!	!	!
.	.	.	.	16qqff#y/JJ)	.	32qqfff#/JJ	.
!	!	!	!	!LO:SIC:s=8gg'\)	!	!LO:SIC:s=8ggg'\)	!
.	.	.	.	8gg\	.	8ggg\	[
*	*	*tuplet	*	*	*	*X8va	*
!	!	!LO:TUP:a	!	!	!	!	!
!	!	!LO:SIC:s=(16qqd/LL	!	!	!	!	!
.	.	(>16qqd/LL	p	.	.	.	.
.	.	16qqe/	.	.	.	.	.
!	!	!LO:SIC:s=16qqf#X/JJ	!	!	!	!	!
.	.	16qqf#X/JJ)	.	.	.	.	.
!	!	!LO:SIC:s=8g/')	!	!	!	!	!
4r	.	8g/	.	2r	2r	2ryy	.
.	.	8r	.	.	.	.	.
*tuplet	*	*	*	*	*	*	*
!LO:TUP:b	!	!	!	!	!	!	!
!LO:SIC:s=(16qqD/LL	!	!	!	!	!	!	!
(>16qqD/LL	p	.	.	.	.	.	.
16qqE/	.	.	.	.	.	.	.
16qqF#X/JJ	.	.	.	.	.	.	.
!LO:SIC:s=8G'\)	!	!	!	!	!	!	!
8G\)	.	4r	.	.	.	.	.
8r	.	.	.	.	.	.	.
*	*	*	*	*	*v	*v	*
!	!	!	!	!LO:MO:mod=!null:null	!	!
!	!	!	!	!LO:CL:ed	!	!
*	*	*	*	*clefF4	*	*
=84	=84	=84	=84	=84	=84	=84
*	*	*	*	*^	*	*
1ryy	.	1ryy	.	16D/LL	2BB-\	[8g/L	.
.	.	.	.	16G/	.	.	.
.	.	.	.	16B-/	.	(32g'/LL]	.
.	.	.	.	.	.	32a'/	.
.	.	.	.	16G/JJ	.	32g'/	.
.	.	.	.	.	.	32f#X'/JJJ	.
*	*	*	*	*rep	*	*	*
.	.	.	.	16D/LL	.	32g'/LLL	.
.	.	.	.	.	.	32d'/	.
.	.	.	.	16G/	.	32e'/	.
.	.	.	.	.	.	32f#'/	.
.	.	.	.	16B-/	.	32g'/	.
.	.	.	.	.	.	32a'/	.
.	.	.	.	16G/JJ	.	32b-'/	.
*	*	*	*	*Xrep	*	*	*
.	.	.	.	.	.	32cc'/JJJ	.
*	*	*	*	*rep	*	*	*
.	.	.	.	16D/LL	2BB-\	(32cc#X\LLL)	.
.	.	.	.	.	.	32dd\	.
.	.	.	.	16G/	.	32ee\	.
.	.	.	.	.	.	32ff#X\	.
.	.	.	.	16B-/	.	32gg\	.
.	.	.	.	.	.	32aa\	.
.	.	.	.	16G/JJ	.	32bb-\	.
.	.	.	.	.	.	32ccc\JJJ	.
*	*	*	*	*	*	*8va	*
.	.	.	.	16D/LL	.	32ccc#X\LLL	.
.	.	.	.	.	.	32ddd\	.
.	.	.	.	16G/	.	32bbb-\	.
.	.	.	.	.	.	32aaa\	.
.	.	.	.	16B-/	.	32ggg\	.
!	!	!	!	!	!	!LO:SIC:v:s=32fffn\	!
.	.	.	.	.	.	32fff#\	.
.	.	.	.	16G/JJ	.	32eee\	.
*	*	*	*	*Xrep	*	*	*
!	!	!	!	!	!	!LO:SIC:s=32ddd\JJJ	!
.	.	.	.	.	.	32ddd\JJJ)	.
!!LO:PB:g=original
=85	=85	=85	=85	=85	=85	=85	=85
!	!	!	!	!	!	!LO:SIC:s=8ccc\L)	!
1ryy	.	1ryy	.	16F/LL	2C\	8ccc\L	.
.	.	.	.	16A/	.	.	.
.	.	.	.	16c/	.	([8aaa\J	.
.	.	.	.	16B-/JJ	.	.	.
*	*	*	*	*rep	*	*	*
.	.	.	.	16F/LL	.	64aaa\LLLL]	.
*	*	*	*	*	*	*X8va	*
!	!	!	!	!	!	!LO:TX:a:t=loco	!
.	.	.	.	.	.	64eee\	.
.	.	.	.	.	.	64fff\	.
.	.	.	.	.	.	64bbn\	.
.	.	.	.	16A/	.	64ccc\	.
!	!	!	!	!	!	!LO:TX:a:t=16:mod=	!
.	.	.	.	.	.	64gg#X\	.
.	.	.	.	.	.	64aa\	.
.	.	.	.	.	.	64ee\	.
.	.	.	.	16c/	.	64ff\	.
!	!	!	!	!	!	!LO:SIC:s=64bn\	!
.	.	.	.	.	.	64bny\	.
.	.	.	.	.	.	64cc\	.
.	.	.	.	.	.	64g#X\	.
.	.	.	.	16B-/JJ	.	64a\	.
*	*	*	*	*Xrep	*	*	*
.	.	.	.	.	.	64f\	.
.	.	.	.	.	.	64b-X\	.
.	.	.	.	.	.	64a\JJJJ)	.
!	!	!	!	!LO:SIC:v:s=16E/LL	!	!LO:SIC:v:s=(>2gnt/	!
.	.	.	.	16F/LL	2C\	(>2g#t/	.
.	.	.	.	16G/	.	.	.
!	!	!	!	!LO:SIC:v:s=16B-/	!	!	!
.	.	.	.	16Bn/	.	.	.
.	.	.	.	16G/JJ	.	.	.
.	.	.	.	16E/LL	.	.	.
.	.	.	.	16G/	.	.	.
!	!	!	!	!LO:SIC:s=16B-	!	!	!
.	.	.	.	16B-X/	.	.	.
.	.	.	.	16E/JJ	.	.	.
!	!	!	!	!	!	!LO:SIC:v:s=16qqf/LL	!
.	.	.	.	.	.	16qqf#X/LL	.
!	!	!	!	!	!	!LO:SIC:v:s=16qqg/	!
.	.	.	.	.	.	16qqg#/	.
.	.	.	.	.	.	16qqa/	.
!	!	!	!	!	!	!LO:SIC:v:s=16qqg/JJ	!
.	.	.	.	.	.	16qqg#/JJ	.
=86	=86	=86	=86	=86	=86	=86	=86
1r	.	4r	.	4A/	4F\	4f/)	.
!	!	!	!LO:MO:mod=.	!	!	!	!
.	.	.	<	.	.	.	.
!	!	!	!LO:MO:null:mod=<	!	!	!	!
.	.	(4cc\	.	4r	4ryyyy	4r	.
.	.	.	[ >	.	.	.	.
.	.	8ff\)	]	4r	2ryyyy	4r	.
.	.	8r	.	.	.	.	.
!	!	!	!	!	!	!LO:SIC:s=(8gL 8f 8d'/	!
.	.	4r	.	8BB-L 8BBB-/	.	(>8gL 8f 8d'/	.
.	.	.	.	8CJ 8CC/	.	8gJ 8e 8c'/)	.
*	*	*	*	*v	*v	*	*
*clefG2	*	*	*	*	*	*
=87	=87	=87	=87	=87	=87	=87
4r	.	1r	.	4F 4FF/	4a 4f 4c/	.
!	!LO:MO:mod=.	!	!	!	!	!
.	<	.	.	.	.	.
!	!LO:MO:null:mod=<	!	!	!	!	!
(4cc\	.	.	.	4r	4r	.
.	[ >	.	.	.	.	.
8ff\)	]	.	.	4r	4r	.
8r	.	.	.	.	.	.
!	!	!	!	!	!LO:SIC:s=(8gL 8f 8Bn'/	!
4r	.	.	.	8DL 8DD/	8gL 8f 8Bn/	.
!	!	!	!	!	!LO:SIC:s=8gJ 8e 8B-X/)	!
.	.	.	.	8CJ 8CC/	8gJ 8e 8B-X/	.
=88	=88	=88	=88	=88	=88	=88
2r	.	4r	.	4BBn 4BBBn/	4f 4d 4A-X/	.
.	.	2aa-X\	fz	4r	4r	.
[2ff\	fz	.	.	2r	2r	.
.	.	[>4a-X/	fz	.	.	.
=89	=89	=89	=89	=89	=89	=89
*	*	*	*	*	*^	*
!	!	!	!LO:MO:mod=!LO&colon;HP&colon;t=dim	!	!	!	!
!	!	!	!LO:HP:t=dim&colon;	!	!	!	!
4ff\]	.	2a-/]	>	(>4.D 4.DD^/	2r	2ryy	.
(4bn^<\	.	.	.	.	.	.	.
.	.	.	.	8D-X 8DD-X/)	.	.	.
!	!	!	!	!	!LO:N:vis=2	!	!
4cc\	.	(>4an/	.	2C 2CC/	(4c/	2c\	.
.	.	16qqb-/LL	.	.	.	.	.
.	.	16qqa/	.	.	.	.	.
.	.	16qqg#X/	.	.	.	.	.
.	.	16qqa/JJ	.	.	.	.	.
4b-X\	.	16cc/LL	.	.	(4e/)	.	.
.	.	16b-/	.	.	.	.	.
.	.	16gn/	.	.	.	.	.
.	.	16a/JJ)	.	.	.	.	.
*	*	*	*	*	*v	*v	*
=90	=90	=90	=90	=90	=90	=90
4a\)	p	4f/	p	8FF/	16fLL 16c/	p
.	.	.	.	.	16f 16c 16A'>/	.
.	.	.	.	8r	16f 16c 16A'>/	.
.	.	.	.	.	16fJJ 16c 16A'>/)	.
*	*	*	*	*	*tremolo	*
!	!	!	!	!	!LO:TX:t=P:problem=łuk z czterema kropkami (skrótowy zapis tremola)	!
4r	.	4r	.	8..FFT/L	(>16fLL 16c 16A'>/	.
.	.	.	.	.	16f 16c 16A'>/	.
.	.	.	.	.	16f 16c 16A'>/	.
.	.	.	.	.	16fJJ 16c 16A'>/)	.
.	.	.	.	64EE/LLL	.	.
.	.	.	.	64DD/JJJJ	.	.
*clefF4	*	*	*	*	*	*
!	!	!	!	!	!LO:TX:t=P:problem=łuk z czterema kropkami (skrótowy zapis tremola)	!
8.r	.	(4gg\	.	4CC/	(>16eLL 16c 16B-'>/	.
.	.	.	.	.	16e 16c 16B-'>/	.
.	.	.	.	.	16e 16c 16B-'>/	.
*Xtuplet	*	*	*	*	*	*
(48G\LLL	.	.	.	.	16eJJ 16c 16B-'>/)	.
48A\	.	.	.	.	.	.
!LO:SIC:v:s=48B-\JJJ	!	!	!	!	!	!
48Bn\JJJ	.	.	.	.	.	.
!LO:SIC:s=16c'\LL)	!	!	!	!	!LO:TX:t=P:problem=łuk z czterema kropkami (skrótowy zapis tremola)	!
16c\LL)	.	4ccc\	.	4r	(>16eLL 16c 16B-'>/	.
80r	.	.	.	.	16e 16c 16B-'>/	.
(80G\LL	.	.	.	.	.	.
80F\	.	.	.	.	.	.
80E\	.	.	.	.	.	.
80D\JJJJ	.	.	.	.	.	.
!LO:SIC:s=16C'/LL)	!	!	!	!	!	!
16C'/LL	.	.	.	.	16e 16c 16B-'>/	.
80r	.	.	.	.	16eJJ 16c 16B-'>/)	.
!LO:SIC:s=(<80GG/LL	!	!	!	!	!	!
(<80GG/LL)	.	.	.	.	.	.
80FF/	.	.	.	.	.	.
80EE/	.	.	.	.	.	.
80DD/JJJJ	.	.	.	.	.	.
=91	=91	=91	=91	=91	=91	=91
4FF/)	.	4aa\)	.	8FF/	16fLL 16c 16A/	.
.	.	.	.	.	16f 16c 16A/	.
.	.	.	.	8r	16f 16c 16A/	.
.	.	.	.	.	16fJJ 16c 16A/	.
!	!	!	!	!	!	!LO:MO:null:mod=<
4r	.	4r	.	8.FFT/L	16fLL 16c 16A/	.
.	.	.	.	.	16f 16c 16A/	.
.	.	.	.	.	16f 16c 16A/	.
!	!	!	!	!LO:N:vis=96	!	!LO:MO:mod=.
.	.	.	.	48EE/LL	16fJJ 16c 16A/	<
!	!	!	!	!LO:N:vis=96	!	!
.	.	.	.	48DD/	.	.
!	!	!	!	!LO:N:vis=96	!	!
.	.	.	.	48CC/JJJ	.	.
16r	.	(4gg\	.	4DD/	16fLL 16Bn 16G/	[
!	!LO:HP:a	!	!	!	!	!
(64G\LLLL	<	.	.	.	16f 16B 16G/	>
64A\	.	.	.	.	.	.
64Bn\	.	.	.	.	.	.
!	!LO:MO:mod=.	!	!	!	!	!
64c\JJJ	[	.	.	.	.	.
!	!LO:MO:null:mod=[	!	!	!	!	!
8d'\J)	.	.	.	.	16f 16B 16G/	.
.	.	.	.	.	16fJJ 16B 16G/	.
*	*	*	*	*	*Xtremolo	*
!	!LO:HP:a	!	!	!	!	!
!	!LO:MO:mod=.	!	!	!	!	!
16r	>	4ccc\)	.	4CCT/	16fLL 16B-X 16G/	.
!	!LO:MO:mod=!LO&colon;HP&colon;a	!	!	!	!	!
!	!null	!	!	!	!	!
!	!LO:MO:null:mod=>	!	!	!	!	!LO:MO:mod=.
(64G/LLLL	.	.	.	.	16f 16B- 16G/	]
64F/	.	.	.	.	.	.
64E/	.	.	.	.	.	.
!	!LO:MO:mod=.	!	!	!	!	!
64D/JJJJ	]	.	.	.	.	.
!LO:N:vis=8	!LO:MO:null:mod=]	!	!	!	!	!
32C'/LLL)	.	.	.	.	16e 16B- 16G/	.
!LO:N:vis=64r	!	!	!	!	!	!
32r	.	.	.	.	.	.
(64C/L	.	.	.	.	16eJJ 16B- 16G/	.
64BB-/	.	.	.	.	.	.
64AA/	.	.	.	.	.	.
!LO:SIC:s=64GG/JJJJ	!	!	!	!	!	!
64GG/JJJJ)	.	.	.	.	.	.
.	.	.	.	16qqBBBn/LL	.	.
!	!	!	!	!	!	!LO:MO:null:mod=]
.	.	.	.	16qqCC/JJ	.	.
!!LO:PB:g=original
=92	=92	=92	=92	=92	=92	=92
*	*	*	*	*	*^	*
!LO:SIC:s=4FF/)	!	!	!	!	!	!	!LO:MO:null:mod=<
4FF/	.	4ff\	.	8FF/	(4f/	2c 2A\	.
!	!	!	!	!	!	!	!LO:MO:mod=.
.	.	.	.	8r	.	.	<
[2.f	.	4r	.	4FFT/	4e-X/	.	.
!	!	!	!	!	!	!	!LO:MO:mod=.
.	.	.	.	16qqEE/LL	.	.	[
.	.	.	.	16qqFF/JJ	.	.	.
!	!	!	!	!	!	!	!LO:MO:null:mod=[
.	.	2r	.	8FFF/	4d/	2B-\	.
.	.	.	.	8r	.	.	>
!	!	!	!	!	!	!	!LO:MO:mod=.
.	.	.	.	4FFT/	4d-X/	.	]
.	.	.	.	16qqEE/LL	.	.	.
!	!	!	!	!	!	!	!LO:MO:null:mod=]
.	.	.	.	16qqFF/JJ	.	.	.
*	*	*	*	*	*v	*v	*
=93	=93	=93	=93	=93	=93	=93
*	*	*	*	*	*^	*
*	*	*	*	*	*	*^	*
4f\]	.	[>1f	.	8FFF/	2c (>2A</)	4F</	1F<	.
!	!	!	!	!	!	!	!	!LO:HP:t=dim&colon;
.	.	.	.	8r	.	.	.	>
4r	.	.	.	4FFT>\	.	4E-X</	.	.
[>2FF/	.	.	.	8FFF/	2B-</	4D</	.	.
.	.	.	.	8r	.	.	.	.
.	.	.	.	4FFT>\	.	4D-X</	.	.
.	.	.	.	16qqEE/LL	.	.	.	.
.	.	.	.	16qqFF/JJ	.	.	.	.
*	*	*	*	*	*v	*v	*v	*
=94	=94	=94	=94	=94	=94	=94
!	!	!	!	!	!	!LO:DY:a
4FF/]	.	8f/L]	.	[1FF [1FFF	[1A< 1F< [1C<)	p
.	.	16r	.	.	.	.
!	!	!LO:SIC:s=(<64f/LLL	!	!	!	!
.	.	64f/LLL	.	.	.	.
.	.	64g/	.	.	.	.
.	.	64a/	.	.	.	.
.	.	64b-/JJJJ	.	.	.	.
!	!	!LO:SIC:s=16cc'\LL)	!	!	!	!
4r	.	16cc\LL	.	.	.	.
!	!	!LO:N:vis=32	!	!	!	!
.	.	64r	.	.	.	.
.	.	(64cc\LL	.	.	.	.
.	.	64dd\	.	.	.	.
.	.	64ee\JJJ	.	.	.	.
.	.	8ff'\J)	.	.	.	.
8.r	.	[>2f/	.	.	.	.
!	!LO:MO:null:mod=p	!	!	!	!	!
(64c\LLLL	.	.	.	.	.	.
64B-\	.	.	.	.	.	.
64A\	.	.	.	.	.	.
!LO:SIC:s=64G\JJJJ	!LO:MO:mod=.	!	!	!	!	!
64G\JJJJ)	p	.	.	.	.	.
!LO:SIC:s=16F'/LL)	!	!	!	!	!	!
16F'/LL	.	.	.	.	.	.
64r	.	.	.	.	.	.
(64F/LL	.	.	.	.	.	.
64E/	.	.	.	.	.	.
64D/JJJJ	.	.	.	.	.	.
!LO:N:vis=16	!	!	!	!	!	!
32C'/LLL)	.	.	.	.	.	.
!LO:N:vis=64r	!	!	!	!	!	!
32r	.	.	.	.	.	.
(64C/L	.	.	.	.	.	.
64BB-/	.	.	.	.	.	.
64AA/	.	.	.	.	.	.
64GG/JJJJ	.	.	.	.	.	.
=95	=95	=95	=95	=95	=95	=95
!	!	!	!	!	!	!LO:DY:b=2:rj
2FF/)	pp	2f_ 2A/	.	4FF] 4FFF\]	(4A<] 4E< 4C<'/]	pp
.	.	.	.	4FF 4FFF\	4A< 4F< 4C<'/)	.
2FF/	<	2f] 2A;/	<	2FF 2FFF\	2A< 2F< 2C<;/	.
.	[ > ]	.	[ > ]	.	.	.
==	==	==	==	==	==	==
*-	*-	*-	*-	*-	*-	*-
!!!system-decoration: {(s1,s2)}(s3,s4)
!!!RDF**kern: > = above
!!!RDF**kern: < = below
!!!filter-modern: extract -k 3,4,1,2
!!!filter-modern: sic -sq | shed -e "s/yy//" | shed -e "s/^(X?)rep$/$1REP/I" | shed -e "s/TX(.*):t=P:/tx$1:t=P:/LG" | shed -e "s/LO:DY:(a|b|rj)/LO:dy:$1/L" | shed -e "s/LO:N:/LO:n:$1/L" | humtr -p | modori -m
!!!ENC: Kamil Watkowski
!!!END: 2021-05-01
!!!ENC: Marta Lawrence
!!!END: 2021-05-15
!!!ENC-modern: Marta Lawrence
!!!END-modern: 2022-08-04
!!!YEC: Copyright 2022 Narodowy Instytut Fryderyka Chopina (https://polishscores.org)
!!!YEM: License CC-BY-4.0 (https://creativecommons.org/licenses/by/4.0)
